histomicstk/cli/ExtractFeaturesFromAnnotations/nuclei.cube
TITLE "Generated by 3D LUT Creator Pro (c) Oleg Sharonov"
LUT_3D_SIZE 4
#INPUTGAMMA sRGB
#IMAGEPROFILE sRGB
#OUTPUTGAMMA sRGB
0.001577 0.001577 0.001577
0.567526 0.566765 0.566709
0.972999 0.970323 0.970296
0.998423 0.993749 0.993696
0.033002 0.034191 0.033002
0.738307 0.738347 0.736984
0.985565 0.984032 0.982473
0.998583 0.995542 0.993995
0.141077 0.144140 0.141077
0.878737 0.880239 0.877204
0.969581 0.969581 0.966800
0.999197 0.998100 0.995853
0.299573 0.301838 0.299450
0.904225 0.905634 0.903505
0.970750 0.971242 0.969739
0.999973 0.999973 0.999441
0.001575 0.001575 0.001995
0.123896 0.123045 0.123896
0.984526 0.981820 0.983132
0.998396 0.993698 0.995237
0.013356 0.014588 0.014588
0.314581 0.314581 0.314581
0.993152 0.991611 0.991584
0.998530 0.995532 0.995479
0.098277 0.101325 0.099801
0.868348 0.869872 0.868348
0.968230 0.968258 0.966840
0.999144 0.998091 0.996958
0.245834 0.248045 0.246571
0.902820 0.904162 0.902789
0.970906 0.971408 0.970405
0.999973 1.000000 0.999645
0.001573 0.001573 0.003180
0.155216 0.154159 0.156017
0.977509 0.974630 0.977482
0.998262 0.993613 0.996677
0.010210 0.011548 0.012885
0.180036 0.180036 0.181465
0.998440 0.996880 0.998413
0.998396 0.995429 0.996886
0.049446 0.052441 0.052441
0.640285 0.641745 0.641745
0.925712 0.925712 0.925682
0.999010 0.998010 0.997956
0.160876 0.162919 0.162238
0.887718 0.888979 0.888302
0.979705 0.980123 0.979678
0.999973 1.000000 0.999849
0.001572 0.001572 0.004977
0.147157 0.145873 0.149726
0.782375 0.779336 0.783858
0.998209 0.993620 0.998182
0.008636 0.010095 0.013013
0.133320 0.133320 0.136348
0.752565 0.751038 0.754130
0.998315 0.995490 0.998288
0.029836 0.032723 0.034166
0.411314 0.412712 0.414111
0.988070 0.988070 0.989285
0.998849 0.997938 0.998822
0.098951 0.100715 0.100715
0.732636 0.733681 0.733640
0.980617 0.980971 0.980916
1.000000 1.000000 0.999973
