histomicstk/cli/ExtractFeaturesFromAnnotations/nuclei.cube
TITLE "Generated by 3D LUT Creator Pro (c) Oleg Sharonov"
LUT_3D_SIZE 8
#INPUTGAMMA sRGB
#IMAGEPROFILE sRGB
#OUTPUTGAMMA sRGB
0.001577 0.001577 0.001577
0.035596 0.035449 0.035449
0.220982 0.220416 0.220416
0.876332 0.875110 0.875078
0.961909 0.959878 0.959822
0.986438 0.983447 0.983393
0.997476 0.993560 0.993533
0.998423 0.993749 0.993696
0.009447 0.009689 0.009447
0.093108 0.093108 0.092830
0.279741 0.279379 0.279017
0.823812 0.822897 0.822405
0.969310 0.967671 0.967069
0.986430 0.983964 0.983320
0.996932 0.993657 0.992943
0.998450 0.994426 0.993728
0.024369 0.025271 0.024369
0.191135 0.191602 0.190668
0.549091 0.549091 0.548016
0.891106 0.890544 0.889390
0.974076 0.972875 0.971591
0.987146 0.985184 0.983849
0.994614 0.991929 0.990532
0.998530 0.995229 0.993882
0.061964 0.063775 0.061964
0.230737 0.231957 0.230126
0.722063 0.722690 0.720767
0.917204 0.917204 0.915229
0.960482 0.959816 0.957789
0.987574 0.986232 0.984191
0.992043 0.990070 0.988043
0.998690 0.996223 0.994300
0.101773 0.104455 0.101773
0.266214 0.268227 0.265402
0.779867 0.781210 0.778488
0.922044 0.922742 0.920010
0.953474 0.953474 0.950815
0.974431 0.973796 0.971227
0.989098 0.987927 0.985478
0.998957 0.997318 0.995106
0.161715 0.164880 0.161715
0.319714 0.322234 0.319084
0.813338 0.815199 0.812062
0.924844 0.926051 0.923005
0.954458 0.955034 0.952124
0.975988 0.975988 0.973268
0.989363 0.988875 0.986407
0.999304 0.998455 0.996305
0.226940 0.229994 0.226940
0.415764 0.418286 0.415177
0.834570 0.836531 0.833556
0.926858 0.928286 0.925429
0.953084 0.953948 0.951328
0.979186 0.979601 0.977226
0.992813 0.992813 0.990804
0.999679 0.999443 0.997812
0.299573 0.301838 0.299450
0.515396 0.517307 0.515077
0.854786 0.856300 0.854147
0.928554 0.929662 0.927693
0.953768 0.954519 0.952777
0.980122 0.980538 0.979124
0.996235 0.996400 0.995381
0.999973 0.999973 0.999441
0.001576 0.001576 0.001656
0.008829 0.008664 0.008829
0.113622 0.113039 0.113330
0.872616 0.871378 0.871759
0.965989 0.963917 0.964379
0.986435 0.983461 0.984007
0.997957 0.994063 0.994663
0.998423 0.993722 0.994367
0.005510 0.005763 0.005763
0.045659 0.045659 0.045659
0.191742 0.191373 0.191373
0.819025 0.818101 0.818066
0.972740 0.971093 0.971065
0.986400 0.983954 0.983900
0.997440 0.994162 0.994109
0.998450 0.994427 0.994400
0.017293 0.018205 0.017749
0.173669 0.174140 0.173669
0.441001 0.441001 0.440490
0.875680 0.875115 0.874519
0.975698 0.974493 0.973822
0.987876 0.985939 0.985230
0.995124 0.992439 0.991741
0.998530 0.995231 0.994545
0.050134 0.051951 0.050740
0.244231 0.245455 0.244231
0.692521 0.693150 0.691893
0.915348 0.915348 0.914019
0.961912 0.961246 0.959885
0.988522 0.987180 0.985811
0.992232 0.990261 0.988920
0.998690 0.996227 0.994929
0.091314 0.093997 0.091984
0.275323 0.277336 0.275323
0.786876 0.788256 0.786205
0.924707 0.925375 0.923342
0.953646 0.953674 0.951647
0.974432 0.973826 0.971867
0.989234 0.988066 0.986218
0.998957 0.997322 0.995659
0.148477 0.151638 0.149109
0.324550 0.327066 0.324550
0.815923 0.817782 0.815269
0.924937 0.926141 0.923703
0.955651 0.956227 0.953897
0.975770 0.975770 0.973593
0.989039 0.988552 0.986578
0.999304 0.998458 0.996738
0.212036 0.215082 0.212544
0.418397 0.420912 0.418397
0.836063 0.838018 0.835540
0.926833 0.928257 0.925874
0.953031 0.953921 0.951711
0.979354 0.979739 0.977758
0.992733 0.992733 0.991062
0.999679 0.999417 0.998083
0.281222 0.283477 0.281544
0.517668 0.519570 0.517668
0.855744 0.857252 0.855410
0.928470 0.929572 0.927890
0.953715 0.954433 0.952969
0.980235 0.980620 0.979437
0.996236 0.996373 0.995528
0.999973 0.999973 0.999521
0.001575 0.001575 0.001886
0.000210 0.000000 0.000420
0.089601 0.089401 0.089601
0.834016 0.832731 0.833554
0.972219 0.970136 0.971136
0.986532 0.983530 0.984688
0.999344 0.995409 0.996694
0.998396 0.993723 0.995013
0.004722 0.005005 0.005287
0.000313 0.000313 0.000627
0.067897 0.067510 0.067897
0.810422 0.809473 0.809912
0.981654 0.980009 0.980512
0.988831 0.986340 0.986935
0.999337 0.996023 0.996659
0.998423 0.994403 0.995046
0.011004 0.011941 0.011941
0.074895 0.075378 0.075378
0.205245 0.205245 0.205245
0.765898 0.765327 0.765327
0.981471 0.980229 0.980202
0.991602 0.989630 0.989603
0.997377 0.994691 0.994664
0.998503 0.995239 0.995186
0.029838 0.031671 0.031060
0.139756 0.140990 0.140373
0.536644 0.537277 0.536644
0.879423 0.879423 0.878739
0.961741 0.961101 0.960377
0.992465 0.991150 0.990426
0.993177 0.991211 0.990528
0.998690 0.996211 0.995538
0.074815 0.077499 0.076157
0.196508 0.198522 0.197179
0.735999 0.737381 0.735999
0.922907 0.923604 0.922211
0.953338 0.953367 0.951999
0.974547 0.973915 0.972596
0.989779 0.988589 0.987346
0.998957 0.997333 0.996196
0.126307 0.129455 0.127566
0.249294 0.251800 0.249921
0.810514 0.812364 0.810479
0.932819 0.934017 0.932191
0.958120 0.958720 0.956948
0.975528 0.975528 0.973900
0.987495 0.987040 0.985537
0.999304 0.998466 0.997182
0.189591 0.192614 0.190599
0.372039 0.374534 0.372538
0.840453 0.842426 0.840453
0.931259 0.932642 0.930769
0.958374 0.959227 0.957493
0.979527 0.979935 0.978357
0.992170 0.992170 0.990845
0.999679 0.999422 0.998367
0.256398 0.258622 0.257033
0.493395 0.495271 0.493708
0.858612 0.860130 0.858612
0.927836 0.928950 0.927535
0.953328 0.954032 0.952801
0.981260 0.981637 0.980667
0.996187 0.996319 0.995605
0.999973 1.000000 0.999613
0.001575 0.001575 0.002260
0.000267 0.000000 0.000801
0.087458 0.086750 0.087812
0.727247 0.725890 0.727247
0.964214 0.962043 0.963643
0.991900 0.988827 0.990644
0.999340 0.995383 0.997335
0.998369 0.993674 0.995633
0.003934 0.004259 0.004908
0.000351 0.000351 0.001052
0.079221 0.078806 0.079636
0.796410 0.795421 0.796374
0.977369 0.975686 0.976771
0.993808 0.991288 0.992494
0.999335 0.996007 0.997311
0.998369 0.994384 0.995668
0.009430 0.010409 0.010898
0.035078 0.035580 0.036082
0.144773 0.144773 0.145310
0.686680 0.686096 0.686636
0.991084 0.989827 0.990402
0.997155 0.995199 0.995807
0.999329 0.996643 0.997288
0.998476 0.995200 0.995802
0.019629 0.021487 0.021487
0.080809 0.082058 0.082058
0.314840 0.315479 0.315479
0.668834 0.668879 0.668834
0.967269 0.966628 0.966572
0.998661 0.997321 0.997295
0.997262 0.995305 0.995278
0.998636 0.996177 0.996150
0.053399 0.056085 0.055414
0.131553 0.133567 0.132896
0.594549 0.595890 0.595167
0.902182 0.902847 0.902152
0.937533 0.937562 0.936852
0.974334 0.973734 0.973051
0.991000 0.989822 0.989206
0.998903 0.997298 0.996736
0.098692 0.101818 0.100568
0.189643 0.192131 0.190887
0.759559 0.761395 0.760133
0.930966 0.932153 0.930937
0.957147 0.957742 0.956553
0.973025 0.973053 0.971943
0.984752 0.984276 0.983269
0.999251 0.998453 0.997576
0.158165 0.161148 0.159656
0.288414 0.290876 0.289399
0.825822 0.827735 0.826266
0.938577 0.939938 0.938548
0.962563 0.963430 0.962116
0.979870 0.980271 0.979095
0.990661 0.990661 0.989655
0.999678 0.999429 0.998653
0.221943 0.224116 0.222874
0.434167 0.435999 0.434777
0.852928 0.854377 0.853185
0.932513 0.933568 0.932483
0.958518 0.959201 0.958262
0.983495 0.983857 0.983105
0.996059 0.996184 0.995630
0.999973 1.000000 0.999708
0.001574 0.001574 0.002770
0.000328 0.000000 0.001311
0.085276 0.084481 0.086072
0.462833 0.461386 0.463315
0.937648 0.935429 0.937619
0.995617 0.992488 0.994964
0.999336 0.995353 0.997982
0.998289 0.993603 0.996227
0.003146 0.003520 0.004640
0.000395 0.000395 0.001580
0.084895 0.084445 0.085795
0.669879 0.668841 0.670353
0.954800 0.953041 0.954772
0.997197 0.994667 0.996531
0.999332 0.995990 0.997968
0.998289 0.994317 0.996263
0.008643 0.009672 0.010701
0.019382 0.019908 0.020960
0.072938 0.072938 0.074052
0.671097 0.670544 0.671695
0.986431 0.985156 0.986404
0.998671 0.996676 0.997979
0.999329 0.996647 0.997962
0.998369 0.995142 0.996390
0.017272 0.019162 0.019791
0.052749 0.054018 0.054653
0.215475 0.216122 0.216769
0.742238 0.742277 0.742899
0.993058 0.992387 0.993031
0.998664 0.997329 0.997970
0.999352 0.997410 0.998031
0.998556 0.996124 0.996705
0.036889 0.039574 0.039574
0.090280 0.092293 0.091862
0.415953 0.417290 0.417290
0.818303 0.818965 0.818930
0.892715 0.892715 0.892684
0.980313 0.979718 0.979664
0.992978 0.991842 0.991788
0.998823 0.997270 0.997217
0.074341 0.077435 0.076816
0.136881 0.139343 0.138727
0.647995 0.649810 0.649205
0.922151 0.923323 0.922707
0.948040 0.948597 0.948011
0.961855 0.961855 0.961308
0.983286 0.982820 0.982326
0.999224 0.998420 0.997991
0.123901 0.126828 0.125852
0.195782 0.198197 0.197231
0.761985 0.763860 0.762923
0.939713 0.941046 0.940129
0.962675 0.963494 0.962647
0.977633 0.977997 0.977214
0.987792 0.987792 0.987124
0.999652 0.999412 0.998907
0.185048 0.187150 0.186249
0.350258 0.352028 0.351143
0.826094 0.827492 0.826619
0.942715 0.943730 0.942940
0.965029 0.965681 0.965001
0.983979 0.984321 0.983781
0.995772 0.995914 0.995515
0.999973 1.000000 0.999797
0.001573 0.001573 0.003404
0.000388 0.000000 0.001941
0.082583 0.081695 0.083917
0.347792 0.346246 0.348822
0.872060 0.869725 0.872612
0.984078 0.980889 0.984023
0.999332 0.995325 0.998637
0.998262 0.993621 0.996902
0.003145 0.003570 0.005268
0.000442 0.000442 0.002211
0.082645 0.082158 0.084109
0.338705 0.337611 0.339798
0.897535 0.895721 0.898109
0.987101 0.984532 0.987074
0.999329 0.995976 0.998632
0.998289 0.994312 0.996936
0.007856 0.008941 0.010570
0.002909 0.003462 0.005121
0.085532 0.085532 0.087271
0.701308 0.700736 0.702538
0.954238 0.952943 0.954857
0.997942 0.995936 0.997915
0.999331 0.996657 0.998636
0.998369 0.995146 0.997026
0.015701 0.017624 0.018907
0.033616 0.034906 0.036196
0.112303 0.112958 0.114269
0.647988 0.647988 0.649273
0.993728 0.993056 0.994372
0.998671 0.997342 0.998644
0.999359 0.997436 0.998691
0.998502 0.996107 0.997278
0.029040 0.031720 0.032390
0.068743 0.070751 0.071420
0.286842 0.288173 0.288710
0.773966 0.774623 0.775243
0.971790 0.971790 0.972403
0.998774 0.998161 0.998747
0.999429 0.998286 0.998831
0.998716 0.997198 0.997659
0.054063 0.057114 0.057114
0.102041 0.104467 0.104467
0.482482 0.484269 0.484269
0.897608 0.898760 0.898730
0.938820 0.939366 0.939337
0.938007 0.938007 0.937978
0.985072 0.984617 0.984590
0.999143 0.998365 0.998311
0.095588 0.098443 0.097967
0.148582 0.150937 0.150466
0.649455 0.651280 0.650777
0.939208 0.940532 0.940042
0.962794 0.963588 0.963163
0.972486 0.972865 0.972459
0.982563 0.982590 0.982242
0.999598 0.999399 0.999119
0.149104 0.151114 0.150540
0.258214 0.259905 0.259341
0.763502 0.764834 0.764263
0.945592 0.946554 0.946044
0.968369 0.968981 0.968545
0.984168 0.984484 0.984141
0.994976 0.995078 0.994846
1.000000 1.000000 0.999872
0.001572 0.001572 0.004146
0.000446 0.000000 0.002677
0.082183 0.081201 0.084147
0.301726 0.300078 0.303373
0.779198 0.776773 0.780373
0.949504 0.946255 0.950096
0.999329 0.995305 0.999303
0.998235 0.993625 0.997546
0.002358 0.002833 0.005209
0.000489 0.000489 0.002935
0.081292 0.080766 0.083399
0.301137 0.299987 0.302864
0.775344 0.773474 0.776553
0.956312 0.953707 0.956942
0.999328 0.995971 0.999302
0.998262 0.994319 0.997578
0.007069 0.008213 0.010501
0.000580 0.001161 0.003482
0.078035 0.078035 0.080445
0.379078 0.378447 0.380972
0.881861 0.880546 0.883144
0.976377 0.974392 0.977021
0.999335 0.996676 0.999309
0.998342 0.995162 0.997653
0.015699 0.017657 0.019614
0.023419 0.024730 0.026696
0.097598 0.098261 0.100249
0.571629 0.571629 0.573639
0.917441 0.916800 0.918752
0.992917 0.991626 0.993550
0.999368 0.997471 0.999341
0.998475 0.996127 0.997862
0.026686 0.029354 0.030688
0.052769 0.054766 0.056097
0.186325 0.187647 0.188969
0.717472 0.718122 0.719424
0.982558 0.982558 0.983794
0.998796 0.998194 0.999371
0.999442 0.998325 0.999415
0.998716 0.997214 0.998161
0.042338 0.045332 0.045931
0.082668 0.085049 0.085644
0.349606 0.351357 0.351941
0.846550 0.847677 0.848207
0.965080 0.965641 0.966119
0.990924 0.990924 0.991362
0.996908 0.996496 0.996882
0.999036 0.998289 0.998636
0.077395 0.080160 0.080160
0.117148 0.119428 0.119428
0.519412 0.521177 0.521177
0.933058 0.934306 0.934277
0.965278 0.966068 0.966012
0.967838 0.968173 0.968117
0.969724 0.969724 0.969696
0.999518 0.999307 0.999254
0.118528 0.120425 0.120154
0.175524 0.177119 0.176853
0.671349 0.672601 0.672305
0.942416 0.943313 0.943060
0.970840 0.971405 0.971189
0.984882 0.985193 0.984996
0.993910 0.993997 0.993856
1.000000 1.000000 0.999924
0.001572 0.001572 0.004977
0.000500 0.000000 0.003499
0.080355 0.079284 0.083032
0.296446 0.294825 0.298774
0.720738 0.718228 0.722620
0.786044 0.782742 0.787328
0.997618 0.993589 0.998262
0.998209 0.993620 0.998182
0.002357 0.002880 0.006016
0.000534 0.000534 0.003738
0.079917 0.079354 0.082736
0.295841 0.294635 0.298253
0.716316 0.714436 0.718238
0.783027 0.780364 0.784322
0.997753 0.994402 0.998396
0.998235 0.994340 0.998182
0.006282 0.007483 0.010484
0.000607 0.001214 0.004249
0.078555 0.078555 0.081678
0.291467 0.290820 0.294054
0.694566 0.693278 0.696561
0.768593 0.766617 0.769935
0.998326 0.995718 0.998958
0.998288 0.995164 0.998262
0.014129 0.016115 0.018763
0.010868 0.012196 0.014852
0.089215 0.089884 0.092558
0.308582 0.308582 0.311268
0.806444 0.805812 0.808447
0.937315 0.936012 0.938589
0.999353 0.997491 0.999920
0.998422 0.996131 0.998395
0.025118 0.027764 0.029748
0.037552 0.039531 0.041510
0.125383 0.126690 0.128651
0.542151 0.542852 0.544717
0.883199 0.883199 0.885029
0.980402 0.979814 0.981551
0.999457 0.998372 0.999973
0.998662 0.997212 0.998608
0.034555 0.037480 0.038650
0.070300 0.072624 0.073786
0.265458 0.267166 0.268304
0.761505 0.762639 0.763697
0.960947 0.961492 0.962469
0.997525 0.997525 0.998447
0.999579 0.999159 0.999973
0.998982 0.998273 0.998929
0.063755 0.066412 0.066854
0.097266 0.099455 0.099893
0.408999 0.410690 0.411113
0.876871 0.878064 0.878430
0.969184 0.969936 0.970243
0.980253 0.980569 0.980857
0.997354 0.997354 0.997586
0.999410 0.999246 0.999384
0.098951 0.100715 0.100715
0.133624 0.135104 0.135104
0.562592 0.563749 0.563749
0.936028 0.936850 0.936820
0.971143 0.971651 0.971624
0.984644 0.984890 0.984863
0.993522 0.993590 0.993563
1.000000 1.000000 0.999973
