histomicstk/cli/ExtractFeaturesFromAnnotations/nuclei.cube
TITLE "Generated by 3D LUT Creator Pro (c) Oleg Sharonov"
LUT_3D_SIZE 64
#INPUTGAMMA sRGB
#IMAGEPROFILE sRGB
#OUTPUTGAMMA sRGB
0.001577 0.001577 0.001577
0.003945 0.003942 0.003942
0.006315 0.006307 0.006307
0.008688 0.008671 0.008671
0.011065 0.011035 0.011035
0.014232 0.014186 0.014186
0.018191 0.018125 0.018125
0.022940 0.022850 0.022850
0.029267 0.029151 0.029151
0.035596 0.035449 0.035449
0.047722 0.047542 0.047542
0.058198 0.057981 0.057981
0.067471 0.067215 0.067215
0.076851 0.076551 0.076551
0.085836 0.085488 0.085488
0.094502 0.094105 0.094105
0.103670 0.103220 0.103220
0.121685 0.121179 0.121179
0.220982 0.220416 0.220416
0.345541 0.344913 0.344809
0.463789 0.463097 0.463097
0.567526 0.566765 0.566709
0.651077 0.650246 0.650199
0.715973 0.715069 0.715069
0.769023 0.768043 0.768005
0.812559 0.811501 0.811466
0.848133 0.846994 0.846961
0.876332 0.875110 0.875078
0.898999 0.897722 0.897661
0.912639 0.911244 0.911214
0.920855 0.919371 0.919341
0.928772 0.927196 0.927166
0.936486 0.934816 0.934787
0.944032 0.942268 0.942239
0.951474 0.949613 0.949585
0.958814 0.956855 0.956827
0.961909 0.959878 0.959822
0.963790 0.961631 0.961575
0.965752 0.963520 0.963464
0.967629 0.965266 0.965210
0.969198 0.966731 0.966676
0.970989 0.968418 0.968390
0.972999 0.970323 0.970296
0.975199 0.972419 0.972391
0.981482 0.978596 0.978541
0.986438 0.983447 0.983393
0.989825 0.986728 0.986701
0.992606 0.989404 0.989377
0.994304 0.990998 0.990971
0.995330 0.991920 0.991893
0.997107 0.993621 0.993567
0.999123 0.995507 0.995480
0.999214 0.995497 0.995470
0.999280 0.995463 0.995436
0.997476 0.993560 0.993533
0.995400 0.991388 0.991361
0.995443 0.991336 0.991283
0.994305 0.990106 0.990052
0.991548 0.987286 0.987232
0.988375 0.983997 0.983943
0.989749 0.985286 0.985259
0.991824 0.987305 0.987251
0.994781 0.990156 0.990102
0.998423 0.993749 0.993696
0.002365 0.002369 0.002365
0.005523 0.005523 0.005519
0.007105 0.007100 0.007095
0.008690 0.008677 0.008671
0.011067 0.011043 0.011034
0.014234 0.014195 0.014186
0.018193 0.018136 0.018124
0.023730 0.023651 0.023638
0.029269 0.029165 0.029150
0.035598 0.035465 0.035449
0.047724 0.047560 0.047542
0.058199 0.058000 0.057980
0.068019 0.067781 0.067759
0.076853 0.076573 0.076550
0.085837 0.085512 0.085488
0.094503 0.094130 0.094104
0.103671 0.103247 0.103219
0.121686 0.121207 0.121178
0.222378 0.221842 0.221810
0.346577 0.345980 0.345947
0.464654 0.463994 0.463960
0.568083 0.567357 0.567265
0.650418 0.649623 0.649585
0.715349 0.714523 0.714442
0.768605 0.767664 0.767586
0.812135 0.811117 0.811040
0.847865 0.846768 0.846691
0.876075 0.874896 0.874819
0.898751 0.897519 0.897411
0.912788 0.911439 0.911361
0.920973 0.919536 0.919456
0.928888 0.927361 0.927280
0.936601 0.934982 0.934900
0.944146 0.942434 0.942351
0.951587 0.949779 0.949696
0.958897 0.956993 0.956908
0.961964 0.959989 0.959876
0.963816 0.961714 0.961628
0.965807 0.963605 0.963517
0.967656 0.965352 0.965236
0.969225 0.966819 0.966701
0.970988 0.968506 0.968388
0.972998 0.970413 0.970294
0.975226 0.972509 0.972417
0.981481 0.978660 0.978567
0.986438 0.983512 0.983391
0.989824 0.986794 0.986699
0.992605 0.989498 0.989376
0.994304 0.991065 0.990943
0.995330 0.991988 0.991892
0.997107 0.993690 0.993566
0.999122 0.995577 0.995479
0.999214 0.995567 0.995469
0.999280 0.995534 0.995435
0.997475 0.993632 0.993533
0.995400 0.991460 0.991360
0.995416 0.991409 0.991282
0.994278 0.990179 0.990051
0.991548 0.987332 0.987231
0.988375 0.984071 0.983943
0.989749 0.985360 0.985259
0.991824 0.987379 0.987251
0.994781 0.990231 0.990102
0.998423 0.993824 0.993696
0.003153 0.003166 0.003153
0.007101 0.007108 0.007094
0.009473 0.009473 0.009458
0.011060 0.011051 0.011034
0.012648 0.012629 0.012609
0.015816 0.015783 0.015760
0.019774 0.019724 0.019699
0.025311 0.025240 0.025212
0.030850 0.030755 0.030724
0.037178 0.037057 0.037023
0.049116 0.048964 0.048926
0.059417 0.059232 0.059191
0.068565 0.068343 0.068299
0.077839 0.077577 0.077529
0.086737 0.086432 0.086381
0.095332 0.094980 0.094926
0.104434 0.104032 0.103975
0.120703 0.120249 0.120188
0.227360 0.226849 0.226785
0.351093 0.350524 0.350457
0.468309 0.467678 0.467608
0.567687 0.567047 0.566918
0.647351 0.646588 0.646464
0.712972 0.712138 0.712059
0.766707 0.765800 0.765680
0.810580 0.809634 0.809513
0.846662 0.845603 0.845481
0.874923 0.873784 0.873661
0.897883 0.896662 0.896537
0.913414 0.912108 0.911981
0.921562 0.920169 0.920040
0.929442 0.927960 0.927828
0.937090 0.935519 0.935385
0.944574 0.942938 0.942773
0.951953 0.950195 0.950057
0.959260 0.957406 0.957266
0.962157 0.960234 0.960064
0.964009 0.961961 0.961816
0.965972 0.963824 0.963677
0.967737 0.965517 0.965340
0.969306 0.966957 0.966806
0.971097 0.968646 0.968492
0.973079 0.970554 0.970371
0.975307 0.972651 0.972494
0.981507 0.978747 0.978561
0.986436 0.983573 0.983386
0.989823 0.986857 0.986695
0.992604 0.989534 0.989371
0.994276 0.991130 0.990939
0.995329 0.992054 0.991861
0.997106 0.993756 0.993562
0.999122 0.995644 0.995476
0.999213 0.995636 0.995466
0.999279 0.995604 0.995433
0.997448 0.993702 0.993504
0.995399 0.991531 0.991358
0.995416 0.991481 0.991280
0.994278 0.990251 0.990050
0.991548 0.987405 0.987230
0.988375 0.984144 0.983942
0.989749 0.985434 0.985258
0.991824 0.987454 0.987251
0.994781 0.990305 0.990102
0.998423 0.993898 0.993696
0.003941 0.003969 0.003941
0.007102 0.007122 0.007093
0.012629 0.012639 0.012609
0.013429 0.013429 0.013397
0.016595 0.016583 0.016548
0.018975 0.018949 0.018910
0.022934 0.022891 0.022848
0.027682 0.027620 0.027573
0.033221 0.033136 0.033084
0.040337 0.040226 0.040170
0.051822 0.051681 0.051621
0.061797 0.061624 0.061559
0.070708 0.070500 0.070430
0.079300 0.079053 0.078979
0.088074 0.087784 0.087705
0.096969 0.096635 0.096551
0.105944 0.105562 0.105473
0.120048 0.119614 0.119521
0.237291 0.236803 0.236706
0.357439 0.356893 0.356791
0.464862 0.464257 0.464150
0.560177 0.559509 0.559340
0.641067 0.640332 0.640168
0.707937 0.707134 0.706972
0.762740 0.761866 0.761703
0.807531 0.806583 0.806419
0.844184 0.843160 0.842993
0.872646 0.871543 0.871374
0.895993 0.894809 0.894636
0.914728 0.913461 0.913285
0.922742 0.921420 0.921210
0.930520 0.929081 0.928898
0.938071 0.936572 0.936356
0.945487 0.943868 0.943677
0.952772 0.951089 0.950867
0.960014 0.958209 0.957984
0.962544 0.960671 0.960442
0.964368 0.962371 0.962166
0.966302 0.964207 0.963999
0.967983 0.965789 0.965551
0.969525 0.967231 0.967017
0.971287 0.968893 0.968676
0.973270 0.970774 0.970526
0.975442 0.972872 0.972622
0.981532 0.978859 0.978607
0.986407 0.983632 0.983377
0.989794 0.986916 0.986660
0.992602 0.989596 0.989364
0.994274 0.991166 0.990932
0.995301 0.992118 0.991855
0.997105 0.993821 0.993556
0.999121 0.995710 0.995444
0.999212 0.995703 0.995461
0.999279 0.995672 0.995428
0.997448 0.993744 0.993500
0.995372 0.991601 0.991328
0.995416 0.991525 0.991277
0.994278 0.990296 0.990048
0.991548 0.987477 0.987228
0.988375 0.984217 0.983940
0.989749 0.985507 0.985257
0.991823 0.987527 0.987250
0.994781 0.990379 0.990129
0.998423 0.993973 0.993696
0.004728 0.004777 0.004728
0.007892 0.007930 0.007880
0.013421 0.013446 0.013395
0.018950 0.018964 0.018910
0.020542 0.020542 0.020484
0.023711 0.023696 0.023634
0.027670 0.027637 0.027572
0.031631 0.031578 0.031508
0.036382 0.036307 0.036231
0.044862 0.044761 0.044681
0.055075 0.054946 0.054860
0.064681 0.064520 0.064428
0.073318 0.073122 0.073025
0.081684 0.081451 0.081348
0.090260 0.089986 0.089877
0.098982 0.098665 0.098549
0.108537 0.108172 0.108051
0.126839 0.126424 0.126297
0.229054 0.228586 0.228453
0.342193 0.341670 0.341530
0.450608 0.450025 0.449880
0.548288 0.547644 0.547434
0.631198 0.630490 0.630283
0.700043 0.699268 0.699062
0.756511 0.755666 0.755497
0.802539 0.801622 0.801412
0.840250 0.839258 0.839044
0.869009 0.867941 0.867723
0.892977 0.891829 0.891607
0.913391 0.912162 0.911935
0.924627 0.923313 0.923082
0.932209 0.930840 0.930574
0.939627 0.938140 0.937899
0.946884 0.945308 0.945062
0.954070 0.952403 0.952152
0.961131 0.959400 0.959117
0.963181 0.961328 0.961068
0.964948 0.963000 0.962735
0.966826 0.964808 0.964512
0.968312 0.966197 0.965896
0.969825 0.967611 0.967307
0.971587 0.969247 0.968938
0.973542 0.971101 0.970789
0.975687 0.973145 0.972857
0.981610 0.978968 0.978677
0.986404 0.983688 0.983366
0.989791 0.986947 0.986622
0.992573 0.989655 0.989327
0.994272 0.991226 0.990896
0.995299 0.992153 0.991846
0.997103 0.993884 0.993549
0.999093 0.995748 0.995436
0.999211 0.995768 0.995455
0.999278 0.995738 0.995423
0.997394 0.993759 0.993441
0.995372 0.991643 0.991323
0.995415 0.991594 0.991247
0.994251 0.990366 0.990017
0.991521 0.987549 0.987198
0.988375 0.984290 0.983965
0.989749 0.985580 0.985256
0.991850 0.987601 0.987249
0.994781 0.990454 0.990128
0.998423 0.994048 0.993696
0.005515 0.005591 0.005515
0.007894 0.007955 0.007878
0.014212 0.014259 0.014180
0.022106 0.022139 0.022058
0.026063 0.026080 0.025995
0.029233 0.029233 0.029145
0.033981 0.033962 0.033869
0.037942 0.037903 0.037805
0.041871 0.041809 0.041704
0.050476 0.050388 0.050278
0.059413 0.059297 0.059180
0.068559 0.068411 0.068288
0.076849 0.076667 0.076537
0.085830 0.085611 0.085475
0.094493 0.094235 0.094091
0.104039 0.103737 0.103587
0.113899 0.113552 0.113394
0.142275 0.141879 0.141714
0.209079 0.208631 0.208458
0.321476 0.320973 0.320794
0.431524 0.430964 0.430777
0.531402 0.530782 0.530588
0.617423 0.616740 0.616539
0.688988 0.688239 0.687988
0.747592 0.746775 0.746521
0.795520 0.794632 0.794374
0.833916 0.832955 0.832692
0.863731 0.862694 0.862426
0.888761 0.887646 0.887373
0.909935 0.908741 0.908462
0.927123 0.925876 0.925561
0.934563 0.933202 0.932882
0.941754 0.940307 0.940010
0.948819 0.947284 0.946981
0.955817 0.954192 0.953855
0.962581 0.960866 0.960552
0.964040 0.962232 0.961912
0.965750 0.963848 0.963523
0.967542 0.965573 0.965215
0.968805 0.966739 0.966376
0.970290 0.968100 0.967759
0.971997 0.969708 0.969363
0.973895 0.971536 0.971158
0.976040 0.973553 0.973199
0.981715 0.979129 0.978770
0.986400 0.983741 0.983351
0.989760 0.986975 0.986581
0.992570 0.989684 0.989287
0.994243 0.991258 0.990884
0.995270 0.992186 0.991808
0.997101 0.993919 0.993539
0.999091 0.995811 0.995401
0.999210 0.995833 0.995447
0.999277 0.995804 0.995415
0.997339 0.993799 0.993381
0.995344 0.991684 0.991291
0.995388 0.991637 0.991242
0.994250 0.990410 0.989986
0.991521 0.987593 0.987195
0.988375 0.984362 0.983963
0.989749 0.985653 0.985254
0.991850 0.987675 0.987248
0.994781 0.990528 0.990128
0.998423 0.994123 0.993696
0.007089 0.007199 0.007089
0.008683 0.008774 0.008664
0.014215 0.014289 0.014178
0.022898 0.022955 0.022841
0.034733 0.034772 0.034654
0.037905 0.037925 0.037803
0.041066 0.041066 0.040940
0.045554 0.045532 0.045400
0.050459 0.050413 0.050275
0.058182 0.058109 0.057965
0.066902 0.066801 0.066650
0.075833 0.075701 0.075543
0.083530 0.083364 0.083198
0.091954 0.091751 0.091577
0.100932 0.100690 0.100508
0.110327 0.110043 0.109853
0.120695 0.120366 0.120168
0.160699 0.160322 0.160116
0.211858 0.211430 0.211216
0.295919 0.295437 0.295215
0.407025 0.406486 0.406256
0.509659 0.509061 0.508823
0.599346 0.598687 0.598440
0.674214 0.673536 0.673235
0.735898 0.735148 0.734844
0.786147 0.785287 0.784979
0.825284 0.824353 0.824039
0.856739 0.855733 0.855413
0.883069 0.881987 0.881660
0.905242 0.904082 0.903748
0.924177 0.922936 0.922566
0.937458 0.936163 0.935787
0.944448 0.943039 0.942685
0.951288 0.949792 0.949431
0.958037 0.956453 0.956085
0.963774 0.962100 0.961726
0.965147 0.963383 0.963002
0.966800 0.964943 0.964555
0.968229 0.966306 0.965884
0.969435 0.967418 0.966990
0.970865 0.968751 0.968318
0.972543 0.970305 0.969866
0.974386 0.972078 0.971634
0.976474 0.974069 0.973619
0.981846 0.979343 0.978888
0.986395 0.983792 0.983333
0.989729 0.987001 0.986537
0.992539 0.989712 0.989245
0.994212 0.991287 0.990843
0.995240 0.992217 0.991769
0.997099 0.993979 0.993527
0.999062 0.995845 0.995390
0.999208 0.995896 0.995437
0.999275 0.995868 0.995407
0.997284 0.993784 0.993293
0.995316 0.991724 0.991257
0.995360 0.991678 0.991209
0.994196 0.990425 0.989955
0.991494 0.987636 0.987164
0.988375 0.984433 0.983960
0.989749 0.985726 0.985252
0.991850 0.987748 0.987274
0.994781 0.990602 0.990128
0.998450 0.994198 0.993724
0.007875 0.008023 0.007875
0.009471 0.009599 0.009450
0.015006 0.015113 0.014963
0.024478 0.024565 0.024412
0.037100 0.037167 0.037011
0.052386 0.052432 0.052271
0.051751 0.051775 0.051609
0.054383 0.054383 0.054212
0.062330 0.062305 0.062128
0.070124 0.070071 0.069887
0.077296 0.077214 0.077023
0.084423 0.084309 0.084110
0.091504 0.091356 0.091149
0.099334 0.099149 0.098934
0.108122 0.107898 0.107674
0.117996 0.117730 0.117160
0.135056 0.134746 0.134505
0.181982 0.181624 0.181157
0.232733 0.232325 0.232065
0.286623 0.286163 0.285894
0.378054 0.377538 0.377260
0.483536 0.482962 0.482675
0.576886 0.576251 0.575955
0.655907 0.655209 0.654857
0.721131 0.720367 0.720012
0.774086 0.773254 0.772893
0.814364 0.813496 0.813129
0.847946 0.846970 0.846595
0.875865 0.874815 0.874433
0.899380 0.898282 0.897862
0.919310 0.918103 0.917706
0.936390 0.935101 0.934696
0.947645 0.946273 0.945860
0.954228 0.952771 0.952350
0.960726 0.959182 0.958753
0.965186 0.963553 0.963117
0.966502 0.964780 0.964336
0.967986 0.966172 0.965722
0.969080 0.967174 0.966689
0.970203 0.968232 0.967739
0.971604 0.969511 0.969011
0.973198 0.971010 0.970532
0.975013 0.972729 0.972244
0.977045 0.974665 0.974174
0.982031 0.979554 0.979031
0.986389 0.983842 0.983313
0.989670 0.986998 0.986492
0.992481 0.989739 0.989200
0.994155 0.991316 0.990773
0.995210 0.992247 0.991727
0.997096 0.994038 0.993486
0.999033 0.995879 0.995351
0.999206 0.995958 0.995426
0.999274 0.995932 0.995397
0.997176 0.993769 0.993204
0.995288 0.991764 0.991223
0.995333 0.991719 0.991176
0.994169 0.990468 0.989923
0.991439 0.987680 0.987106
0.988374 0.984505 0.983957
0.989749 0.985826 0.985250
0.991850 0.987822 0.987273
0.994781 0.990704 0.990128
0.998450 0.994274 0.993725
0.008661 0.008853 0.008661
0.010260 0.010429 0.010236
0.015796 0.015942 0.015747
0.025269 0.025392 0.025195
0.039467 0.039567 0.039367
0.057474 0.057551 0.057346
0.067351 0.067404 0.067194
0.066279 0.066305 0.066090
0.074250 0.074250 0.074029
0.081591 0.081563 0.081334
0.088859 0.088800 0.088564
0.094829 0.094738 0.094494
0.100879 0.100752 0.100500
0.108460 0.108297 0.108035
0.116950 0.116748 0.116477
0.126482 0.126237 0.125957
0.157930 0.157640 0.157351
0.204912 0.204576 0.204277
0.255412 0.255027 0.254718
0.308594 0.308156 0.307838
0.362885 0.362392 0.362063
0.453211 0.452661 0.452322
0.550353 0.549743 0.549394
0.633821 0.633148 0.632741
0.703210 0.702473 0.702062
0.758286 0.757481 0.757103
0.800926 0.800052 0.799628
0.836973 0.836028 0.835596
0.866939 0.865952 0.865480
0.892100 0.891035 0.890556
0.913295 0.912151 0.911695
0.931402 0.930148 0.929682
0.946965 0.945629 0.945155
0.957607 0.956215 0.955705
0.963823 0.962318 0.961827
0.966872 0.965280 0.964780
0.968019 0.966367 0.965831
0.969029 0.967259 0.966743
0.970039 0.968178 0.967654
0.971134 0.969181 0.968650
0.972452 0.970406 0.969867
0.973990 0.971851 0.971304
0.975721 0.973514 0.972934
0.977752 0.975423 0.974863
0.982243 0.979818 0.979225
0.986383 0.983863 0.983291
0.989610 0.986994 0.986416
0.992449 0.989737 0.989154
0.994124 0.991316 0.990701
0.995179 0.992277 0.991657
0.997066 0.994096 0.993471
0.999004 0.995912 0.995283
0.999204 0.996019 0.995413
0.999272 0.995995 0.995386
0.997068 0.993727 0.993087
0.995234 0.991803 0.991161
0.995279 0.991733 0.991116
0.994115 0.990510 0.989863
0.991412 0.987696 0.987075
0.988374 0.984577 0.983954
0.989776 0.985899 0.985248
0.991850 0.987923 0.987272
0.994781 0.990779 0.990128
0.998450 0.994349 0.993726
0.009447 0.009689 0.009447
0.011048 0.011264 0.011021
0.016586 0.016776 0.016532
0.026060 0.026224 0.025978
0.041034 0.041172 0.040923
0.061675 0.061788 0.061534
0.076202 0.076288 0.076029
0.082004 0.082062 0.081798
0.087041 0.087071 0.086800
0.093108 0.093108 0.092830
0.100034 0.100002 0.099716
0.107662 0.107597 0.107303
0.112732 0.112631 0.112328
0.119612 0.119473 0.119161
0.127394 0.127215 0.126894
0.140255 0.140034 0.139703
0.182820 0.182555 0.182214
0.229706 0.229394 0.229043
0.279741 0.279379 0.279017
0.332235 0.331821 0.331449
0.385307 0.384839 0.384365
0.437786 0.437261 0.436867
0.520215 0.519631 0.519227
0.608248 0.607603 0.607188
0.680977 0.680311 0.679841
0.738038 0.737302 0.736825
0.784804 0.783959 0.783512
0.823812 0.822897 0.822405
0.856254 0.855266 0.854765
0.883358 0.882295 0.881786
0.906041 0.904901 0.904382
0.925342 0.924123 0.923595
0.941934 0.940635 0.940097
0.956284 0.954930 0.954355
0.967323 0.965857 0.965301
0.968580 0.967028 0.966463
0.969310 0.967671 0.967069
0.970235 0.968536 0.967925
0.971163 0.969346 0.968754
0.972174 0.970295 0.969667
0.973436 0.971437 0.970801
0.974891 0.972799 0.972183
0.976565 0.974381 0.973757
0.978595 0.976317 0.975687
0.982481 0.980109 0.979472
0.986430 0.983964 0.983320
0.989550 0.986989 0.986312
0.992390 0.989734 0.989078
0.994065 0.991316 0.990654
0.995122 0.992278 0.991612
0.997063 0.994126 0.993455
0.998947 0.995918 0.995242
0.999201 0.996080 0.995400
0.999270 0.996058 0.995374
0.996932 0.993657 0.992943
0.995179 0.991816 0.991099
0.995224 0.991747 0.991055
0.994060 0.990499 0.989804
0.991358 0.987713 0.987017
0.988374 0.984676 0.983951
0.989776 0.985972 0.985274
0.991850 0.987998 0.987272
0.994807 0.990854 0.990129
0.998450 0.994426 0.993728
0.011019 0.011316 0.011019
0.012623 0.012891 0.012594
0.017376 0.017615 0.017316
0.027638 0.027849 0.027548
0.043303 0.043486 0.043181
0.064550 0.064704 0.064396
0.080565 0.080691 0.080377
0.097154 0.097250 0.096930
0.101531 0.101597 0.101271
0.106491 0.106525 0.106192
0.112666 0.112666 0.112325
0.119876 0.119841 0.119491
0.127323 0.127251 0.126893
0.133178 0.133068 0.132701
0.140223 0.140072 0.139695
0.167429 0.167236 0.166848
0.210324 0.210085 0.209688
0.256855 0.256569 0.256161
0.306163 0.305828 0.305408
0.357308 0.356921 0.356491
0.408940 0.408499 0.408058
0.459817 0.459392 0.458867
0.508476 0.507920 0.507456
0.578390 0.577772 0.577298
0.655121 0.654440 0.653954
0.714472 0.713726 0.713187
0.765890 0.765076 0.764567
0.808465 0.807581 0.807026
0.843589 0.842667 0.842102
0.872906 0.871908 0.871334
0.897510 0.896404 0.895820
0.918244 0.917060 0.916467
0.935994 0.934731 0.934128
0.954759 0.953414 0.952801
0.968332 0.966932 0.966282
0.969950 0.968466 0.967806
0.970735 0.969137 0.968468
0.971605 0.969921 0.969241
0.972394 0.970621 0.969960
0.973350 0.971515 0.970818
0.974528 0.972575 0.971897
0.975899 0.973883 0.973169
0.977518 0.975383 0.974688
0.979573 0.977346 0.976617
0.982609 0.980317 0.979580
0.986505 0.984092 0.983348
0.989462 0.986957 0.986233
0.992330 0.989731 0.989002
0.993980 0.991315 0.990553
0.995064 0.992280 0.991539
0.997059 0.994183 0.993410
0.998891 0.995950 0.995173
0.999199 0.996141 0.995386
0.999268 0.996120 0.995362
0.996797 0.993561 0.992799
0.995124 0.991801 0.991036
0.995143 0.991761 0.990967
0.994006 0.990514 0.989744
0.991303 0.987730 0.986958
0.988374 0.984748 0.983948
0.989776 0.986046 0.985273
0.991877 0.988073 0.987299
0.994807 0.990957 0.990158
0.998450 0.994529 0.993731
0.011804 0.012161 0.011804
0.013411 0.013735 0.013378
0.018952 0.019245 0.018887
0.028428 0.028691 0.028330
0.045501 0.045732 0.045368
0.067331 0.067532 0.067163
0.083827 0.083997 0.083624
0.102656 0.102794 0.102415
0.122397 0.122502 0.122117
0.122433 0.122504 0.122112
0.127565 0.127601 0.127201
0.134001 0.134001 0.133592
0.140716 0.140678 0.140260
0.148743 0.148665 0.148237
0.158626 0.158506 0.158069
0.198451 0.198288 0.197841
0.241234 0.241026 0.240568
0.286672 0.286416 0.285947
0.334786 0.334480 0.334000
0.384252 0.383894 0.383403
0.434061 0.433649 0.433146
0.482795 0.482327 0.481813
0.528285 0.527758 0.527232
0.570000 0.569412 0.568874
0.626945 0.626295 0.625745
0.692325 0.691610 0.691005
0.749439 0.748657 0.748044
0.797026 0.796175 0.795553
0.836675 0.835753 0.835122
0.869901 0.868905 0.868265
0.898005 0.896934 0.896284
0.921910 0.920763 0.920102
0.942575 0.941378 0.940678
0.960580 0.959274 0.958565
0.968363 0.966976 0.966284
0.970011 0.968540 0.967838
0.971685 0.970130 0.969418
0.973082 0.971440 0.970690
0.973760 0.972059 0.971299
0.974660 0.972844 0.972075
0.975727 0.973850 0.973072
0.977043 0.975048 0.974289
0.978578 0.976492 0.975725
0.980632 0.978456 0.977680
0.982764 0.980497 0.979686
0.986470 0.984110 0.983320
0.989375 0.986924 0.986099
0.992243 0.989701 0.988897
0.993921 0.991287 0.990450
0.995006 0.992281 0.991438
0.997029 0.994213 0.993392
0.998834 0.995956 0.995103
0.999197 0.996202 0.995372
0.999266 0.996183 0.995349
0.996634 0.993465 0.992600
0.995069 0.991814 0.990947
0.995061 0.991749 0.990879
0.993925 0.990503 0.989658
0.991249 0.987747 0.986874
0.988401 0.984821 0.983946
0.989776 0.986147 0.985272
0.991877 0.988148 0.987300
0.994808 0.991034 0.990160
0.998450 0.994607 0.993735
0.013376 0.013798 0.013376
0.014985 0.015372 0.014950
0.019741 0.020094 0.019671
0.030005 0.030325 0.029899
0.047632 0.047918 0.047489
0.070025 0.070277 0.069844
0.086540 0.086759 0.086321
0.107533 0.107717 0.107274
0.129044 0.129194 0.128744
0.142850 0.142965 0.142507
0.144552 0.144629 0.144164
0.150529 0.150568 0.150094
0.157289 0.157289 0.156806
0.164489 0.164448 0.163956
0.190140 0.190056 0.189554
0.230966 0.230838 0.230325
0.273297 0.273122 0.272462
0.317614 0.317391 0.316857
0.363855 0.363582 0.363036
0.411153 0.410827 0.410186
0.458583 0.458203 0.457634
0.503492 0.503056 0.502475
0.545955 0.545461 0.544868
0.588172 0.587618 0.587013
0.655165 0.654548 0.653884
0.714501 0.713819 0.713148
0.767952 0.767204 0.766524
0.812419 0.811602 0.810914
0.849646 0.848758 0.848060
0.880908 0.879948 0.879239
0.907352 0.906318 0.905598
0.930002 0.928892 0.928162
0.949522 0.948335 0.947565
0.966604 0.965337 0.964585
0.968367 0.967019 0.966256
0.970044 0.968614 0.967841
0.971748 0.970234 0.969423
0.973450 0.971879 0.971057
0.974929 0.973246 0.972413
0.976050 0.974308 0.973466
0.977062 0.975232 0.974380
0.978294 0.976348 0.975515
0.979718 0.977683 0.976841
0.981743 0.979645 0.978768
0.983356 0.981168 0.980283
0.986434 0.984156 0.983264
0.989259 0.986864 0.985991
0.992102 0.989644 0.988737
0.993835 0.991259 0.990347
0.994921 0.992255 0.991364
0.996998 0.994270 0.993347
0.998778 0.995935 0.995033
0.999194 0.996263 0.995357
0.999237 0.996220 0.995310
0.996419 0.993342 0.992402
0.994988 0.991801 0.990857
0.994980 0.991710 0.990792
0.993844 0.990493 0.989573
0.991168 0.987738 0.986817
0.988401 0.984895 0.983972
0.989803 0.986222 0.985299
0.991904 0.988251 0.987329
0.994834 0.991111 0.990191
0.998476 0.994685 0.993767
0.014947 0.015438 0.014947
0.015772 0.016226 0.015734
0.021316 0.021734 0.021241
0.031582 0.031963 0.031467
0.050379 0.050724 0.050226
0.072639 0.072948 0.072445
0.089180 0.089453 0.088946
0.111858 0.112094 0.111581
0.135073 0.135273 0.134753
0.158175 0.158337 0.157811
0.165807 0.165930 0.165396
0.170093 0.170176 0.169633
0.176522 0.176565 0.176013
0.182930 0.182930 0.182369
0.223292 0.223248 0.222677
0.265301 0.265211 0.264629
0.308217 0.308080 0.307488
0.351163 0.350978 0.350374
0.395472 0.395235 0.394532
0.439903 0.439613 0.438987
0.482724 0.482380 0.481673
0.524519 0.524119 0.523468
0.564835 0.564376 0.563713
0.622316 0.621797 0.621122
0.684043 0.683461 0.682773
0.738797 0.738151 0.737411
0.786113 0.785401 0.784651
0.827708 0.826927 0.826168
0.862519 0.861701 0.860931
0.891888 0.890997 0.890185
0.916810 0.915814 0.915023
0.938174 0.937132 0.936300
0.956627 0.955479 0.954665
0.966632 0.965406 0.964581
0.968341 0.967035 0.966199
0.970048 0.968689 0.967814
0.971781 0.970312 0.969454
0.973485 0.971932 0.971063
0.974967 0.973329 0.972422
0.976475 0.974751 0.973862
0.978037 0.976227 0.975328
0.979625 0.977728 0.976820
0.980993 0.979036 0.978091
0.982470 0.980397 0.979471
0.984028 0.981866 0.980932
0.986399 0.984176 0.983207
0.989144 0.986804 0.985828
0.991934 0.989533 0.988550
0.993722 0.991205 0.990243
0.994889 0.992284 0.991316
0.996994 0.994301 0.993328
0.998721 0.995941 0.994936
