histomicstk/cli/ExtractFeaturesFromAnnotations/PAS+.cube
TITLE "Generated by 3D LUT Creator Pro (c) Oleg Sharonov"
LUT_3D_SIZE 4
#INPUTGAMMA sRGB
#IMAGEPROFILE sRGB
#OUTPUTGAMMA sRGB
0.000000 0.000000 0.000000
0.333694 0.000073 0.334335
0.667305 0.000091 0.668469
0.998195 0.013156 0.999718
0.027647 0.332181 0.000113
0.258011 0.398880 0.255489
0.892380 0.050268 0.866622
0.998344 0.335010 0.999731
0.095936 0.664585 0.000315
0.028576 0.702376 0.000278
0.503418 0.746133 0.497002
0.998972 0.667170 0.999878
0.165288 0.996849 0.000276
0.342208 0.999912 0.301984
0.669653 0.999926 0.659067
1.000000 1.000000 0.999970
0.000000 0.000000 0.000010
0.333259 0.000073 0.333912
0.666986 0.000091 0.668161
0.998195 0.013156 0.999728
0.027647 0.332181 0.000124
0.257864 0.398792 0.255350
0.892098 0.052922 0.866276
0.998344 0.335010 0.999741
0.095936 0.664585 0.000325
0.027790 0.702248 0.000288
0.503418 0.746093 0.496946
0.998972 0.667170 0.999888
0.165288 0.996849 0.000286
0.341893 0.999912 0.301505
0.669517 0.999926 0.658892
1.000000 1.000000 0.999980
0.000000 0.000000 0.000020
0.332169 0.000072 0.332616
0.666529 0.000091 0.667625
0.998195 0.013156 0.999738
0.027647 0.332181 0.000134
0.257275 0.398443 0.254764
0.891159 0.062724 0.865115
0.998344 0.335010 0.999751
0.095936 0.664585 0.000335
0.027003 0.701821 0.000297
0.503287 0.745975 0.496824
0.998972 0.667170 0.999898
0.165288 0.996849 0.000296
0.340836 0.999912 0.300164
0.669017 0.999926 0.658392
1.000000 1.000000 0.999990
0.000000 0.000000 0.000031
0.330086 0.000072 0.329886
0.665752 0.000092 0.666723
0.998195 0.013156 0.999748
0.027647 0.332181 0.000144
0.254155 0.397917 0.251921
0.890127 0.068850 0.863954
0.998344 0.335118 0.999762
0.095936 0.664585 0.000345
0.025429 0.700838 0.000305
0.503025 0.745738 0.496634
0.998972 0.667170 0.999909
0.165288 0.996849 0.000306
0.338606 0.999913 0.297328
0.668108 0.999926 0.657333
1.000000 1.000000 1.000000
