histomicstk/cli/ExtractFeaturesFromAnnotations/PAS+.cube
TITLE "Generated by 3D LUT Creator Pro (c) Oleg Sharonov"
LUT_3D_SIZE 8
#INPUTGAMMA sRGB
#IMAGEPROFILE sRGB
#OUTPUTGAMMA sRGB
0.000000 0.000000 0.000000
0.142589 0.000019 0.143144
0.285733 0.000059 0.286377
0.428865 0.000097 0.429652
0.571967 0.000109 0.573006
0.714959 0.000071 0.716229
0.857766 0.000000 0.859279
0.998195 0.013156 0.999718
0.005535 0.142310 0.000023
0.091751 0.167498 0.093431
0.305629 0.136872 0.308501
0.497205 0.000112 0.495324
0.627479 0.000107 0.622644
0.753099 0.000056 0.748774
0.884487 0.000000 0.880638
0.998201 0.147523 0.999696
0.019756 0.284693 0.000085
0.007964 0.309282 0.007173
0.209483 0.340282 0.210402
0.562535 0.297660 0.538170
0.779109 0.065098 0.755874
0.869502 0.000000 0.854450
0.972107 0.000000 0.961396
0.998277 0.287764 0.999717
0.046230 0.427050 0.000176
0.006442 0.442006 0.000149
0.174269 0.474224 0.169654
0.335038 0.501987 0.330011
0.622308 0.477896 0.601283
0.927237 0.334460 0.892936
0.992691 0.356853 0.972224
0.998487 0.429766 0.999768
0.075710 0.569584 0.000267
0.009649 0.578242 0.000214
0.020678 0.605865 0.000238
0.304788 0.625016 0.298904
0.438154 0.649106 0.431699
0.651845 0.650052 0.613075
0.917431 0.605033 0.893182
0.998740 0.572058 0.999833
0.105690 0.712049 0.000331
0.053779 0.718356 0.000304
0.022290 0.736081 0.000280
0.194618 0.759198 0.184222
0.420917 0.771179 0.414876
0.536060 0.794693 0.529647
0.841966 0.755298 0.831112
0.999099 0.714651 0.999899
0.135377 0.854426 0.000343
0.100359 0.859435 0.000336
0.026236 0.872164 0.000295
0.042693 0.894385 0.000303
0.334998 0.907231 0.326530
0.502519 0.920146 0.496683
0.749125 0.908168 0.746106
0.999309 0.857390 0.999949
0.165288 0.996849 0.000276
0.165771 1.000000 0.000273
0.296847 0.999936 0.246147
0.435014 0.999890 0.408039
0.575541 0.999902 0.560010
0.716917 0.999941 0.708340
0.858773 0.999981 0.855124
1.000000 1.000000 0.999970
0.000000 0.000000 0.000004
0.142589 0.000019 0.143148
0.285733 0.000059 0.286382
0.428865 0.000097 0.429656
0.571967 0.000109 0.573011
0.714834 0.000072 0.716108
0.857897 0.000000 0.859382
0.998195 0.013156 0.999722
0.005535 0.142310 0.000027
0.091751 0.167498 0.093435
0.305267 0.137163 0.308267
0.497271 0.000112 0.495329
0.627529 0.000107 0.622698
0.753099 0.000056 0.748779
0.884519 0.000000 0.880642
0.998201 0.147523 0.999701
0.019756 0.284693 0.000089
0.006389 0.309164 0.006389
0.209483 0.340282 0.210406
0.562024 0.298033 0.537693
0.779071 0.065658 0.755840
0.869535 0.000000 0.854455
0.972107 0.000000 0.961400
0.998277 0.287764 0.999721
0.046230 0.427211 0.000181
0.006442 0.441929 0.000153
0.174269 0.474224 0.169659
0.335038 0.501987 0.329906
0.621958 0.478035 0.600975
0.927149 0.334676 0.892816
0.992691 0.356853 0.972229
0.998487 0.429766 0.999772
0.075710 0.569584 0.000272
0.009649 0.578242 0.000219
0.020678 0.605865 0.000242
0.304667 0.625016 0.298909
0.438154 0.649106 0.431703
0.651563 0.650146 0.612673
0.917310 0.604981 0.893093
0.998740 0.572058 0.999838
0.105690 0.712049 0.000336
0.054422 0.718355 0.000308
0.021503 0.736041 0.000284
0.194618 0.759198 0.184227
0.420836 0.771179 0.414880
0.536060 0.794693 0.529651
0.841831 0.755376 0.830946
0.999099 0.714651 0.999904
0.135671 0.854426 0.000347
0.100750 0.859402 0.000341
0.025449 0.872164 0.000298
0.042693 0.894385 0.000308
0.334998 0.907231 0.326535
0.502519 0.920146 0.496621
0.749086 0.908168 0.746110
0.999309 0.857390 0.999953
0.165288 0.996876 0.000280
0.166011 1.000000 0.000277
0.296347 0.999936 0.245530
0.435014 0.999890 0.408043
0.575375 0.999902 0.559786
0.716917 0.999941 0.708344
0.858773 0.999981 0.855129
1.000000 1.000000 0.999974
0.000000 0.000000 0.000009
0.142869 0.000019 0.143153
0.285733 0.000059 0.286386
0.428865 0.000097 0.429661
0.571744 0.000109 0.572793
0.714833 0.000072 0.716071
0.857766 0.000000 0.859256
0.998195 0.013156 0.999726
0.005535 0.142310 0.000031
0.091751 0.167498 0.093439
0.304420 0.138034 0.307314
0.497404 0.000112 0.495466
0.627381 0.000107 0.622553
0.753137 0.000056 0.748861
0.884424 0.000000 0.880552
0.998201 0.147523 0.999705
0.019756 0.284693 0.000094
0.003236 0.309166 0.002454
0.209297 0.340070 0.210225
0.560429 0.298777 0.536251
0.778996 0.067317 0.755689
0.869470 0.000000 0.854393
0.972052 0.000000 0.961320
0.998277 0.287764 0.999725
0.046230 0.427050 0.000185
0.006442 0.441775 0.000157
0.173586 0.474295 0.168960
0.335038 0.501987 0.329910
0.620909 0.478384 0.599934
0.926941 0.335001 0.892603
0.992638 0.356953 0.972149
0.998487 0.429766 0.999776
0.075710 0.569584 0.000276
0.009649 0.578077 0.000223
0.020678 0.605813 0.000246
0.304667 0.625016 0.298789
0.438077 0.649059 0.431628
0.650009 0.650712 0.611250
0.917160 0.605084 0.892941
0.998740 0.572058 0.999842
0.105690 0.712049 0.000340
0.056319 0.718230 0.000314
0.021503 0.736001 0.000288
0.194416 0.759198 0.184016
0.420836 0.771141 0.414801
0.536060 0.794693 0.529656
0.841123 0.755609 0.830196
0.999099 0.714651 0.999908
0.135377 0.854426 0.000352
0.101914 0.859369 0.000345
0.025449 0.872100 0.000303
0.042693 0.894354 0.000312
0.334997 0.907200 0.326427
0.502453 0.920146 0.496626
0.749007 0.908168 0.745996
0.999309 0.857390 0.999958
0.165288 0.996876 0.000284
0.166011 1.000000 0.000282
0.296347 0.999936 0.245535
0.434699 0.999890 0.407708
0.575375 0.999902 0.559791
0.716751 0.999940 0.708221
0.858675 0.999982 0.855001
1.000000 1.000000 0.999978
0.000000 0.000000 0.000013
0.141746 0.000018 0.142037
0.285341 0.000059 0.285869
0.428625 0.000097 0.429346
0.571577 0.000109 0.572575
0.714666 0.000072 0.715951
0.857667 0.000000 0.859162
0.998195 0.013156 0.999731
0.005535 0.142310 0.000036
0.090899 0.167261 0.092605
0.303449 0.138611 0.306478
0.497470 0.000112 0.495470
0.627282 0.000107 0.622458
0.753059 0.000056 0.748748
0.884361 0.000000 0.880493
0.998201 0.147523 0.999710
0.019756 0.284693 0.000098
0.000872 0.308572 0.000093
0.209110 0.339964 0.210044
0.557394 0.300505 0.533531
0.778660 0.069481 0.755304
0.869631 0.000000 0.854497
0.971996 0.000000 0.961268
0.998277 0.287764 0.999730
0.046230 0.427050 0.000189
0.006441 0.441312 0.000161
0.170823 0.474225 0.166120
0.334930 0.501922 0.329915
0.618953 0.479080 0.598157
0.926438 0.335756 0.892077
0.992556 0.357053 0.972042
0.998487 0.429766 0.999781
0.075710 0.569584 0.000280
0.009649 0.577913 0.000227
0.020678 0.605607 0.000251
0.304061 0.625016 0.298173
0.437998 0.649011 0.431632
0.647502 0.651371 0.610744
0.916769 0.605136 0.892571
0.998740 0.572058 0.999846
0.105690 0.712049 0.000345
0.059383 0.718105 0.000321
0.021503 0.735840 0.000292
0.192180 0.759238 0.181864
0.420754 0.771104 0.414722
0.536000 0.794657 0.529599
0.840112 0.755958 0.829136
0.999099 0.714651 0.999913
0.135377 0.854426 0.000356
0.103828 0.859303 0.000350
0.025449 0.872003 0.000307
0.042693 0.894292 0.000317
0.334889 0.907200 0.326431
0.502257 0.920146 0.496363
0.748968 0.908168 0.745961
0.999309 0.857390 0.999962
0.165288 0.996849 0.000289
0.166010 1.000000 0.000286
0.295972 0.999936 0.245072
0.434464 0.999890 0.407372
0.575154 0.999902 0.559566
0.716626 0.999941 0.708056
0.858675 0.999982 0.855006
1.000000 1.000000 0.999983
0.000000 0.000000 0.000017
0.140046 0.000018 0.139773
0.284948 0.000058 0.285219
0.428065 0.000097 0.428711
0.571411 0.000109 0.572357
0.714416 0.000072 0.715622
0.857438 0.000000 0.858904
0.998195 0.013156 0.999735
0.005535 0.142310 0.000040
0.088736 0.166785 0.090482
0.302596 0.138898 0.305519
0.497139 0.000112 0.495141
0.627282 0.000107 0.622412
0.753059 0.000056 0.748713
0.884298 0.000000 0.880433
0.998201 0.147523 0.999714
0.019756 0.284693 0.000102
0.000871 0.307136 0.000097
0.208923 0.339751 0.209863
0.555955 0.301120 0.532197
0.778248 0.073146 0.754764
0.869696 0.000000 0.854501
0.971969 0.000000 0.961216
0.998277 0.287764 0.999734
0.046230 0.427211 0.000194
0.006442 0.440694 0.000165
0.166589 0.474086 0.161760
0.334714 0.501791 0.329699
0.616182 0.480053 0.595529
0.925726 0.336939 0.891302
0.992421 0.357253 0.971852
0.998487 0.429766 0.999785
0.075710 0.569584 0.000285
0.010435 0.577528 0.000232
0.019891 0.605245 0.000254
0.301990 0.625066 0.296059
0.437999 0.648964 0.431558
0.643934 0.652404 0.609775
0.916258 0.605292 0.892108
0.998740 0.572169 0.999851
0.105690 0.712049 0.000349
0.064060 0.717979 0.000329
0.021503 0.735599 0.000297
0.189084 0.759317 0.178579
0.420263 0.771141 0.414227
0.536000 0.794584 0.529603
0.838421 0.756617 0.827282
0.999099 0.714651 0.999917
0.135671 0.854426 0.000360
0.106454 0.859139 0.000355
0.025449 0.871907 0.000311
0.042693 0.894198 0.000321
0.333155 0.907261 0.324647
0.501798 0.920146 0.495968
0.748732 0.908168 0.745768
0.999309 0.857390 0.999967
0.165288 0.996849 0.000293
0.166010 0.999966 0.000290
0.295471 0.999936 0.244452
0.434228 0.999891 0.407036
0.574989 0.999902 0.559342
0.716501 0.999941 0.707892
0.858444 0.999981 0.854746
1.000000 1.000000 0.999987
0.000000 0.000000 0.000022
0.138901 0.000018 0.138341
0.284029 0.000058 0.284174
0.427825 0.000097 0.428395
0.571021 0.000109 0.571917
0.714292 0.000072 0.715418
0.857339 0.000000 0.858777
0.998195 0.013156 0.999739
0.005535 0.142310 0.000044
0.084724 0.167024 0.086096
0.301004 0.139758 0.304071
0.497205 0.000112 0.495145
0.627084 0.000107 0.622167
0.752904 0.000056 0.748561
0.884172 0.000000 0.880279
0.998201 0.147523 0.999718
0.019756 0.284693 0.000107
0.000870 0.305692 0.000101
0.207988 0.339539 0.208936
0.554627 0.301488 0.530981
0.777762 0.075677 0.754184
0.869695 0.000000 0.854439
0.971885 0.000000 0.961107
0.998277 0.287764 0.999739
0.046230 0.427211 0.000198
0.005654 0.439766 0.000169
0.160759 0.474018 0.156001
0.334605 0.501725 0.329593
0.614867 0.480401 0.594318
0.924688 0.338439 0.890182
0.992231 0.357553 0.971606
0.998487 0.429766 0.999789
0.075710 0.569584 0.000289
0.019089 0.577304 0.000246
0.019891 0.604882 0.000258
0.299163 0.625265 0.293293
0.437843 0.648822 0.431482
0.639234 0.653670 0.608087
0.915474 0.605447 0.891364
0.998740 0.572169 0.999855
0.105690 0.712049 0.000353
0.069565 0.717729 0.000336
0.020716 0.735439 0.000300
0.184655 0.759398 0.173867
0.418538 0.771255 0.412559
0.535940 0.794511 0.529485
0.836115 0.757469 0.824836
0.999099 0.714651 0.999921
0.135377 0.854426 0.000365
0.110465 0.858973 0.000360
0.025450 0.871714 0.000316
0.041938 0.894043 0.000325
0.330862 0.907414 0.322286
0.500944 0.920266 0.495039
0.748536 0.908137 0.745575
0.999309 0.857390 0.999971
0.165288 0.996849 0.000297
0.166249 0.999886 0.000295
0.294717 0.999937 0.243203
0.433677 0.999890 0.406443
0.574602 0.999901 0.558945
0.716210 0.999940 0.707557
0.858215 0.999981 0.854518
1.000000 1.000000 0.999992
0.000000 0.000000 0.000026
0.135995 0.000017 0.135427
0.283239 0.000058 0.283124
0.427022 0.000097 0.427437
0.570631 0.000109 0.571476
0.713832 0.000072 0.714964
0.857108 0.000000 0.858487
0.998195 0.013156 0.999744
0.005535 0.142310 0.000049
0.075178 0.167500 0.076693
0.298908 0.140895 0.302004
0.497006 0.000112 0.494949
0.626887 0.000107 0.621972
0.752787 0.000056 0.748408
0.884078 0.000000 0.880157
0.998201 0.147523 0.999723
0.019756 0.284693 0.000111
0.000870 0.304362 0.000105
0.206481 0.339220 0.207629
0.552889 0.302100 0.529393
0.777350 0.077164 0.753722
0.869567 0.000000 0.854245
0.971858 0.000000 0.961027
0.998277 0.287764 0.999743
0.046230 0.427211 0.000202
0.005653 0.438523 0.000172
0.152626 0.473810 0.147871
0.334172 0.501462 0.329156
0.614056 0.480540 0.593528
0.923884 0.339398 0.889311
0.991988 0.357952 0.971305
0.998487 0.429766 0.999794
0.075710 0.569584 0.000294
0.029318 0.576805 0.000261
0.019104 0.604209 0.000261
0.295425 0.625415 0.289471
0.437687 0.648728 0.431328
0.637399 0.654045 0.607216
0.914479 0.605706 0.890462
0.998740 0.572169 0.999860
0.105690 0.712049 0.000358
0.076248 0.717437 0.000345
0.020716 0.734996 0.000304
0.178566 0.759441 0.167599
0.416390 0.771482 0.410461
0.535819 0.794403 0.529429
0.833050 0.758667 0.821441
0.999099 0.714651 0.999926
0.135671 0.854426 0.000369
0.115035 0.858710 0.000366
0.024663 0.871521 0.000319
0.041175 0.893826 0.000329
0.327663 0.907537 0.319104
0.498171 0.920595 0.492229
0.748378 0.908107 0.745421
0.999309 0.857390 0.999975
0.165288 0.996849 0.000302
0.166249 0.999805 0.000299
0.293836 0.999938 0.241946
0.433125 0.999890 0.405763
0.574215 0.999901 0.558492
0.715919 0.999940 0.707266
0.857985 0.999981 0.854259
1.000000 1.000000 0.999996
0.000000 0.000000 0.000031
0.132725 0.000016 0.133052
0.281916 0.000057 0.281405
0.426459 0.000097 0.426719
0.570073 0.000109 0.570812
0.713582 0.000072 0.714634
0.856780 0.000000 0.858131
0.998195 0.013156 0.999748
0.005535 0.142310 0.000053
0.058067 0.168920 0.059306
0.295793 0.142304 0.298808
0.496673 0.000112 0.494553
0.626491 0.000107 0.621576
0.752553 0.000056 0.748137
0.883857 0.000000 0.879939
0.998201 0.147523 0.999727
0.019756 0.284693 0.000115
0.001656 0.302780 0.000109
0.203815 0.338901 0.204983
0.550328 0.303319 0.526998
0.776714 0.079110 0.753025
0.869470 0.000000 0.854118
0.971691 0.000000 0.960834
0.998277 0.287764 0.999747
0.046230 0.427211 0.000207
0.004866 0.437199 0.000175
0.142347 0.473532 0.137234
0.333412 0.501265 0.328387
0.612989 0.480747 0.592470
0.923408 0.339717 0.888782
0.991771 0.358152 0.971003
0.998487 0.429766 0.999798
0.075710 0.569584 0.000298
0.042628 0.576306 0.000277
0.018317 0.603431 0.000265
0.290738 0.625664 0.284803
0.437454 0.648586 0.431095
0.636285 0.654232 0.606602
0.913876 0.605758 0.889841
0.998740 0.572169 0.999864
0.105690 0.712049 0.000362
0.084326 0.717061 0.000354
0.019929 0.734554 0.000308
0.171091 0.759639 0.159584
0.413728 0.771708 0.407671
0.535698 0.794329 0.529309
0.831854 0.759014 0.820122
0.999099 0.714651 0.999930
0.135671 0.854426 0.000373
0.120764 0.858348 0.000371
0.024663 0.871296 0.000323
0.041175 0.893608 0.000333
0.323866 0.907722 0.315186
0.494912 0.921073 0.488991
0.748183 0.908046 0.745189
0.999309 0.857390 0.999980
0.165288 0.996849 0.000306
0.166488 0.999698 0.000304
0.292570 0.999938 0.240204
0.432335 0.999891 0.404826
0.573661 0.999901 0.557865
0.715503 0.999940 0.706762
0.857656 0.999981 0.853899
1.000000 1.000000 1.000000
