histomicstk/cli/ExtractFeaturesFromAnnotations/PAS+.cube
TITLE "Generated by 3D LUT Creator Pro (c) Oleg Sharonov"
LUT_3D_SIZE 64
#INPUTGAMMA sRGB
#IMAGEPROFILE sRGB
#OUTPUTGAMMA sRGB
0.000000 0.000000 0.000000
0.016560 0.000000 0.016560
0.033121 0.000001 0.033120
0.048987 0.000003 0.049670
0.064525 0.000004 0.064523
0.079108 0.000006 0.079586
0.094684 0.000009 0.095094
0.110802 0.000012 0.111156
0.127195 0.000015 0.127817
0.142589 0.000019 0.143144
0.159490 0.000023 0.159984
0.174480 0.000027 0.174929
0.190293 0.000031 0.190907
0.206315 0.000035 0.206876
0.222292 0.000040 0.222807
0.238205 0.000044 0.238682
0.253894 0.000049 0.254486
0.270220 0.000054 0.270769
0.285733 0.000059 0.286377
0.301790 0.000064 0.302393
0.317586 0.000068 0.318268
0.333694 0.000073 0.334335
0.349534 0.000078 0.350345
0.365331 0.000082 0.366099
0.381355 0.000086 0.382083
0.397122 0.000090 0.397902
0.413078 0.000094 0.413902
0.428865 0.000097 0.429652
0.444728 0.000100 0.445555
0.460719 0.000103 0.461583
0.476535 0.000105 0.477432
0.492459 0.000107 0.493386
0.508406 0.000109 0.509359
0.524178 0.000110 0.525157
0.540030 0.000110 0.540971
0.556060 0.000110 0.557081
0.571967 0.000109 0.573006
0.587864 0.000108 0.588920
0.603800 0.000106 0.604871
0.619514 0.000103 0.620649
0.635459 0.000100 0.636606
0.651234 0.000096 0.652390
0.667305 0.000091 0.668469
0.683066 0.000086 0.684283
0.698927 0.000079 0.700193
0.714959 0.000071 0.716229
0.730819 0.000063 0.732092
0.746635 0.000054 0.747990
0.762601 0.000044 0.763956
0.778364 0.000032 0.779756
0.794263 0.000020 0.795655
0.810111 0.000007 0.811535
0.826042 0.000000 0.827499
0.841916 0.000000 0.843402
0.857766 0.000000 0.859279
0.873686 0.000000 0.875227
0.889701 0.000000 0.891235
0.905404 0.000000 0.906993
0.921410 0.000000 0.923021
0.937232 0.000000 0.938864
0.953049 0.000000 0.954700
0.968970 0.000000 0.970668
0.984878 0.000000 0.986566
0.998195 0.013156 0.999718
0.000000 0.014983 0.000000
0.007886 0.020503 0.007886
0.028389 0.018137 0.028388
0.052348 0.014196 0.052347
0.075172 0.009467 0.074666
0.097133 0.003952 0.097131
0.115022 0.000013 0.115019
0.128754 0.000016 0.128129
0.142028 0.000019 0.141460
0.156973 0.000023 0.156459
0.171500 0.000026 0.170799
0.186316 0.000030 0.185461
0.201325 0.000034 0.200538
0.216455 0.000039 0.215548
0.231656 0.000043 0.230647
0.246891 0.000047 0.245796
0.262133 0.000052 0.260965
0.277361 0.000056 0.276267
0.292942 0.000062 0.291915
0.308439 0.000066 0.307592
0.323965 0.000071 0.323165
0.339287 0.000075 0.338636
0.354929 0.000079 0.354413
0.370448 0.000083 0.369957
0.386123 0.000088 0.385747
0.401662 0.000091 0.401390
0.417405 0.000095 0.417227
0.432998 0.000098 0.432827
0.448755 0.000101 0.448666
0.464575 0.000104 0.464561
0.480233 0.000106 0.480218
0.495941 0.000108 0.496059
0.511751 0.000109 0.511928
0.527397 0.000110 0.527628
0.543308 0.000111 0.543589
0.559048 0.000110 0.559375
0.574849 0.000110 0.575219
0.590648 0.000108 0.591057
0.606490 0.000106 0.606937
0.622117 0.000103 0.622647
0.637979 0.000100 0.638539
0.653815 0.000096 0.654452
0.669670 0.000091 0.670331
0.685493 0.000085 0.686221
0.701326 0.000079 0.702074
0.716998 0.000071 0.717764
0.732921 0.000063 0.733746
0.748719 0.000053 0.749560
0.764475 0.000043 0.765368
0.780300 0.000032 0.781243
0.796150 0.000019 0.797102
0.812054 0.000006 0.813087
0.827938 0.000000 0.829011
0.843663 0.000000 0.844743
0.859601 0.000000 0.860719
0.875350 0.000000 0.876504
0.891201 0.000000 0.892388
0.907112 0.000000 0.908333
0.922961 0.000000 0.924212
0.938748 0.000000 0.940056
0.954616 0.000000 0.955952
0.970532 0.000000 0.971892
0.986379 0.000000 0.987764
0.998190 0.029711 0.999712
0.000790 0.031544 0.000001
0.006310 0.037853 0.006310
0.015773 0.040218 0.015772
0.027601 0.043264 0.027600
0.059268 0.034698 0.059867
0.083345 0.029968 0.083343
0.105675 0.023664 0.106046
0.129060 0.015784 0.128746
0.150751 0.007116 0.150482
0.169638 0.000026 0.169399
0.183110 0.000030 0.182673
0.196793 0.000033 0.196388
0.210990 0.000037 0.210429
0.225404 0.000041 0.224710
0.239971 0.000046 0.239163
0.254792 0.000050 0.253736
0.269382 0.000055 0.268391
0.284686 0.000059 0.283493
0.299329 0.000064 0.298203
0.314573 0.000068 0.313276
0.329646 0.000073 0.328309
0.345084 0.000077 0.343608
0.360127 0.000081 0.358524
0.375668 0.000085 0.374051
0.390821 0.000089 0.389369
0.406482 0.000093 0.405184
0.422004 0.000096 0.420763
0.437395 0.000100 0.436286
0.452888 0.000103 0.451900
0.468319 0.000105 0.467442
0.484031 0.000107 0.483259
0.499656 0.000109 0.498913
0.515323 0.000110 0.514671
0.530836 0.000111 0.530330
0.546385 0.000111 0.545955
0.562072 0.000111 0.561657
0.577713 0.000110 0.577421
0.593415 0.000109 0.593185
0.609165 0.000106 0.608992
0.624905 0.000103 0.624835
0.640485 0.000100 0.640466
0.656244 0.000095 0.656318
0.672025 0.000091 0.672141
0.687822 0.000085 0.687977
0.703544 0.000078 0.703778
0.719318 0.000070 0.719586
0.735015 0.000062 0.735356
0.750757 0.000053 0.751125
0.766572 0.000042 0.767006
0.782379 0.000031 0.782874
0.798175 0.000019 0.798691
0.813921 0.000005 0.814494
0.829757 0.000000 0.830383
0.845539 0.000000 0.846216
0.861301 0.000000 0.862025
0.877136 0.000000 0.877905
0.892945 0.000000 0.893757
0.908696 0.000000 0.909548
0.924508 0.000000 0.925400
0.940377 0.000000 0.941335
0.956209 0.000000 0.957174
0.971979 0.000000 0.973004
0.987796 0.000000 0.988879
0.998186 0.045204 0.999708
0.000790 0.047598 0.000002
0.003157 0.053654 0.002369
0.015774 0.055569 0.015773
0.024448 0.058663 0.023658
0.036276 0.061644 0.036274
0.069471 0.054934 0.070531
0.094263 0.049671 0.095087
0.117749 0.043269 0.118083
0.140322 0.035496 0.140886
0.162939 0.025251 0.163179
0.184822 0.014220 0.184817
0.205364 0.003189 0.205168
0.221067 0.000041 0.220710
0.234792 0.000045 0.234293
0.248739 0.000049 0.248117
0.262709 0.000053 0.262124
0.276954 0.000057 0.276131
0.291670 0.000062 0.290766
0.306041 0.000066 0.304944
0.320795 0.000071 0.319642
0.335644 0.000075 0.334334
0.350765 0.000079 0.349420
0.365429 0.000083 0.363953
0.380801 0.000087 0.379210
0.395714 0.000091 0.394107
0.411147 0.000094 0.409444
0.426541 0.000098 0.424831
0.441814 0.000101 0.439944
0.457121 0.000103 0.455105
0.472309 0.000106 0.470445
0.487861 0.000108 0.486208
0.503337 0.000110 0.501747
0.518612 0.000111 0.517206
0.534248 0.000111 0.532954
0.549674 0.000112 0.548484
0.565189 0.000111 0.564153
0.580778 0.000110 0.579776
0.596376 0.000109 0.595513
0.612028 0.000106 0.611244
0.627676 0.000103 0.626965
0.643171 0.000100 0.642577
0.658847 0.000096 0.658316
0.674549 0.000090 0.674079
0.690228 0.000084 0.689857
0.705923 0.000078 0.705604
0.721588 0.000070 0.721361
0.737263 0.000062 0.737120
0.753059 0.000052 0.752959
0.768699 0.000041 0.768676
0.784450 0.000030 0.784463
0.800156 0.000017 0.800276
0.815853 0.000004 0.816003
0.831640 0.000000 0.831854
0.847410 0.000000 0.847650
0.863126 0.000000 0.863458
0.878919 0.000000 0.879273
0.894685 0.000000 0.895094
0.910397 0.000000 0.910854
0.926171 0.000000 0.926704
0.942002 0.000000 0.942581
0.957798 0.000000 0.958421
0.973534 0.000000 0.974197
0.989318 0.000000 0.990047
0.998184 0.059005 0.999704
0.001581 0.063386 0.000005
0.000005 0.068939 0.000005
0.011833 0.071587 0.011832
0.025237 0.073139 0.025236
0.033911 0.076168 0.033909
0.046894 0.079583 0.046892
0.074665 0.077155 0.078617
0.104920 0.069471 0.106413
0.129052 0.063957 0.129973
0.151532 0.056828 0.152316
0.173783 0.048998 0.174462
0.196381 0.037873 0.196975
0.218410 0.024477 0.218581
0.239325 0.011082 0.239479
0.258785 0.000053 0.258631
0.272025 0.000056 0.271740
0.285733 0.000060 0.285201
0.299946 0.000065 0.299319
0.313872 0.000069 0.313042
0.328208 0.000073 0.327199
0.342569 0.000077 0.341503
0.357339 0.000082 0.356125
0.371690 0.000085 0.370435
0.386851 0.000089 0.385381
0.401663 0.000093 0.400172
0.417157 0.000096 0.415567
0.432287 0.000099 0.430606
0.447394 0.000102 0.445629
0.462399 0.000105 0.460558
0.477308 0.000107 0.475398
0.492595 0.000109 0.490624
0.507826 0.000110 0.505732
0.522873 0.000111 0.520730
0.538293 0.000112 0.536045
0.553634 0.000112 0.551523
0.569012 0.000111 0.567029
0.584417 0.000110 0.582608
0.599894 0.000109 0.598197
0.615433 0.000107 0.613840
0.630971 0.000103 0.629528
0.646554 0.000100 0.645202
0.661943 0.000095 0.660723
0.677553 0.000090 0.676413
0.693144 0.000084 0.692123
0.708755 0.000077 0.707805
0.724382 0.000069 0.723498
0.739940 0.000060 0.739159
0.755663 0.000051 0.754981
0.771235 0.000041 0.770607
0.786918 0.000028 0.786379
0.802561 0.000016 0.802106
0.818197 0.000002 0.817823
0.833926 0.000000 0.833629
0.849640 0.000000 0.849382
0.865303 0.000000 0.865115
0.881045 0.000000 0.880923
0.896762 0.000000 0.896704
0.912516 0.000000 0.912548
0.928154 0.000000 0.928244
0.943940 0.000000 0.944086
0.959696 0.000000 0.959892
0.975390 0.000000 0.975637
0.991134 0.000000 0.991456
0.998180 0.072872 0.999703
0.002371 0.078625 0.000007
0.000008 0.084268 0.000007
0.006316 0.087857 0.006315
0.020508 0.089169 0.020507
0.035490 0.090895 0.035488
0.045466 0.094264 0.045464
0.057442 0.097530 0.058052
0.080537 0.097930 0.081947
0.115356 0.089166 0.118079
0.138885 0.084719 0.141162
0.162195 0.079108 0.163898
0.184808 0.071594 0.186292
0.207239 0.063399 0.208549
0.229965 0.052372 0.230964
0.252676 0.037887 0.253272
0.274766 0.020551 0.275032
0.296090 0.003217 0.296082
0.310577 0.000069 0.310332
0.324189 0.000072 0.323729
0.338005 0.000076 0.337352
0.351888 0.000080 0.351060
0.365915 0.000084 0.364929
0.380337 0.000088 0.379304
0.394829 0.000091 0.393663
0.409627 0.000095 0.408342
0.424441 0.000098 0.422966
0.439262 0.000101 0.437769
0.454081 0.000104 0.452423
0.468748 0.000106 0.467083
0.483413 0.000108 0.481602
0.498268 0.000110 0.496390
0.513223 0.000111 0.511221
0.528322 0.000112 0.526207
0.543488 0.000113 0.541327
0.558534 0.000112 0.556330
0.573689 0.000112 0.571392
0.588939 0.000111 0.586555
0.604217 0.000109 0.601753
0.619565 0.000106 0.617029
0.634975 0.000103 0.632565
0.650247 0.000099 0.648003
0.665754 0.000095 0.663623
0.681205 0.000089 0.679227
0.696734 0.000083 0.694855
0.712201 0.000076 0.710458
0.727569 0.000068 0.725955
0.743198 0.000059 0.741708
0.758719 0.000050 0.757304
0.774322 0.000039 0.773020
0.789779 0.000027 0.788583
0.805385 0.000014 0.804254
0.821055 0.000000 0.820056
0.836714 0.000000 0.835772
0.852227 0.000000 0.851373
0.867958 0.000000 0.867189
0.883637 0.000000 0.882948
0.899171 0.000000 0.898558
0.914901 0.000000 0.914361
0.930574 0.000000 0.930104
0.946192 0.000000 0.945818
0.961898 0.000000 0.961587
0.977656 0.000000 0.977406
0.993353 0.000000 0.993160
0.998179 0.087143 0.999700
0.002374 0.094685 0.000010
0.000011 0.099926 0.000010
0.000800 0.103413 0.000799
0.013415 0.104550 0.013414
0.029973 0.106791 0.030759
0.046897 0.108261 0.047598
0.056200 0.111862 0.056821
0.068398 0.115701 0.068934
0.089602 0.117406 0.091317
0.126236 0.109350 0.129970
0.149138 0.104543 0.152572
0.171940 0.099920 0.174907
0.195366 0.093854 0.197758
0.219102 0.086533 0.221035
0.242170 0.076683 0.243583
0.265404 0.065114 0.266534
0.288051 0.050387 0.288818
0.310562 0.030808 0.311028
0.331944 0.010321 0.332045
0.349328 0.000080 0.349319
0.362690 0.000084 0.362385
0.376512 0.000087 0.375938
0.390370 0.000091 0.389730
0.404424 0.000094 0.403551
0.418724 0.000098 0.417722
0.433156 0.000101 0.432035
0.447393 0.000103 0.446086
0.461523 0.000106 0.460120
0.475976 0.000108 0.474413
0.490573 0.000110 0.488931
0.505099 0.000111 0.503319
0.519807 0.000112 0.517963
0.534611 0.000113 0.532649
0.549323 0.000113 0.547309
0.564228 0.000113 0.562110
0.579359 0.000112 0.577145
0.594370 0.000110 0.592067
0.609729 0.000108 0.607243
0.626788 0.000105 0.623741
0.641447 0.000102 0.638489
0.656199 0.000098 0.653233
0.670986 0.000093 0.668103
0.685714 0.000088 0.682824
0.700728 0.000082 0.697917
0.716125 0.000075 0.713434
0.731507 0.000067 0.728970
0.747030 0.000058 0.744640
0.762448 0.000048 0.760159
0.777842 0.000037 0.775686
0.793319 0.000025 0.791326
0.808835 0.000012 0.806928
0.824419 0.000000 0.822628
0.839894 0.000000 0.838213
0.855430 0.000000 0.853855
0.871085 0.000000 0.869611
0.886565 0.000000 0.885186
0.902156 0.000000 0.900869
0.917787 0.000000 0.916619
0.933426 0.000000 0.932311
0.948981 0.000000 0.947978
0.964627 0.000000 0.963700
0.980217 0.000000 0.979363
0.995968 0.000000 0.995211
0.998177 0.102369 0.999698
0.003165 0.110803 0.000014
0.000014 0.114677 0.000013
0.000015 0.118431 0.000014
0.006323 0.121090 0.006321
0.022880 0.122396 0.022878
0.042523 0.124332 0.043269
0.059273 0.126239 0.059870
0.068399 0.130282 0.068935
0.079587 0.134206 0.081009
0.099524 0.136271 0.101477
0.129666 0.132406 0.139165
0.162190 0.124966 0.166301
0.183515 0.121081 0.187550
0.208169 0.115017 0.211140
0.232287 0.108269 0.234754
0.255948 0.100325 0.258011
0.278943 0.090056 0.280543
0.301389 0.077679 0.302605
0.324047 0.062850 0.324938
0.346309 0.044062 0.346923
0.368033 0.019789 0.368312
0.388208 0.000091 0.388288
0.401401 0.000094 0.401216
0.415164 0.000097 0.414819
0.429025 0.000100 0.428452
0.442735 0.000103 0.441953
0.456528 0.000105 0.455625
0.470318 0.000107 0.469233
0.484374 0.000109 0.483121
0.498664 0.000111 0.497256
0.512838 0.000112 0.511349
0.527274 0.000113 0.525588
0.541822 0.000113 0.540072
0.556292 0.000113 0.554425
0.570855 0.000113 0.568936
0.586252 0.000112 0.584018
0.602867 0.000110 0.600135
0.619616 0.000107 0.616321
0.635364 0.000104 0.631782
0.649680 0.000100 0.646152
0.664105 0.000096 0.660676
0.678492 0.000092 0.675066
0.693057 0.000086 0.689725
0.707742 0.000079 0.704415
0.722454 0.000072 0.719171
0.737224 0.000064 0.733986
0.752008 0.000055 0.748814
0.766991 0.000046 0.763802
0.782009 0.000035 0.778862
0.797380 0.000023 0.794421
0.812794 0.000010 0.809980
0.828177 0.000000 0.825500
0.843662 0.000000 0.841082
0.859109 0.000000 0.856689
0.874549 0.000000 0.872249
0.890074 0.000000 0.887889
0.905585 0.000000 0.903510
0.921140 0.000000 0.919199
0.936587 0.000000 0.934748
0.952190 0.000000 0.950445
0.967766 0.000000 0.966115
0.983289 0.000000 0.981755
0.998868 0.000000 0.997418
0.998176 0.116796 0.999697
0.004744 0.126566 0.000018
0.000017 0.129682 0.000017
0.000019 0.133625 0.000018
0.000020 0.136873 0.000018
0.014211 0.138609 0.014209
0.033921 0.140323 0.034706
0.055576 0.142016 0.056201
0.071590 0.144797 0.072624
0.079588 0.148605 0.081011
0.090897 0.152837 0.092590
0.110076 0.155165 0.112565
0.135685 0.154907 0.141159
0.174908 0.145618 0.179811
0.197757 0.141448 0.202451
0.220682 0.136276 0.224848
0.244987 0.129675 0.248234
0.268920 0.122726 0.271701
0.292390 0.114337 0.294787
0.315693 0.103811 0.317651
0.338606 0.090928 0.339982
0.360781 0.075715 0.361858
0.382523 0.057498 0.383341
0.404060 0.032408 0.404567
0.425487 0.004829 0.425637
0.440035 0.000103 0.440023
0.453333 0.000105 0.453022
0.466450 0.000107 0.465932
0.480093 0.000109 0.479384
0.493735 0.000111 0.492847
0.507371 0.000113 0.506318
0.521498 0.000113 0.520291
0.536063 0.000114 0.534593
0.551133 0.000114 0.549246
0.566710 0.000114 0.564435
0.582357 0.000113 0.579666
0.598270 0.000111 0.595089
0.614622 0.000109 0.610936
0.630776 0.000106 0.626518
0.645033 0.000102 0.640800
0.658987 0.000098 0.654822
0.673065 0.000094 0.669013
0.687077 0.000089 0.683132
0.701370 0.000083 0.697486
0.715751 0.000076 0.711926
0.730211 0.000069 0.726444
0.744703 0.000061 0.740991
0.759259 0.000051 0.755601
0.774021 0.000041 0.770379
0.788645 0.000031 0.785053
0.803455 0.000018 0.799915
0.818302 0.000005 0.814774
0.833108 0.000000 0.829595
0.848109 0.000000 0.844609
0.863255 0.000000 0.859870
0.878600 0.000000 0.875355
0.894032 0.000000 0.890924
0.909453 0.000000 0.906476
0.924923 0.000000 0.922099
0.940287 0.000000 0.937583
0.955809 0.000000 0.953219
0.971308 0.000000 0.968829
0.986758 0.000000 0.984412
0.999742 0.030503 0.997516
0.998175 0.132137 0.999697
0.005535 0.142310 0.000023
0.000809 0.145364 0.000021
0.000810 0.148354 0.000022
0.000812 0.151810 0.000023
0.005543 0.154671 0.005541
0.024464 0.156459 0.024461
0.047609 0.158477 0.048303
0.068403 0.160222 0.069475
0.083810 0.163172 0.085172
0.091751 0.167498 0.093431
0.102259 0.171939 0.104164
0.121082 0.174455 0.123681
0.145071 0.175359 0.149400
0.185438 0.166781 0.192313
0.211325 0.161945 0.216771
0.233107 0.157966 0.238481
0.257860 0.151532 0.261937
0.281868 0.144529 0.285155
0.305629 0.136872 0.308501
0.329263 0.128141 0.331892
0.352448 0.117096 0.354567
0.375430 0.104202 0.377112
0.397955 0.089648 0.399171
0.420001 0.071121 0.420892
0.445391 0.039510 0.445379
0.469747 0.000109 0.468733
0.484717 0.000110 0.482983
0.497205 0.000112 0.495324
0.510210 0.000113 0.508130
0.523806 0.000114 0.521543
0.537570 0.000114 0.535077
0.551832 0.000114 0.549011
0.566429 0.000114 0.563301
0.581214 0.000113 0.577694
0.596535 0.000112 0.592598
0.611877 0.000109 0.607499
0.627479 0.000107 0.622644
0.642550 0.000104 0.637425
0.655919 0.000100 0.650930
0.669309 0.000096 0.664447
0.683023 0.000091 0.678289
0.696864 0.000085 0.692208
0.710691 0.000079 0.706112
0.724710 0.000072 0.720245
0.738862 0.000064 0.734469
0.753099 0.000056 0.748774
0.767523 0.000047 0.763266
0.781860 0.000036 0.777705
0.796366 0.000025 0.792274
0.810959 0.000013 0.806892
0.825351 0.000000 0.821308
0.840062 0.000000 0.836112
0.854771 0.000000 0.850843
0.869701 0.000000 0.865796
0.884487 0.000000 0.880638
0.899324 0.000000 0.895497
0.914387 0.000000 0.910552
0.929304 0.000000 0.925521
0.944517 0.000000 0.940814
0.959948 0.000000 0.956409
0.975249 0.000000 0.971839
0.990698 0.000000 0.987441
0.999732 0.068135 0.996648
0.998201 0.147523 0.999696
0.006327 0.158238 0.000027
0.000813 0.160736 0.000025
0.000815 0.163680 0.000026
0.000816 0.166807 0.000027
0.000030 0.170341 0.000028
0.014220 0.172650 0.014217
0.037082 0.174243 0.037867
0.061070 0.176720 0.062236
0.081019 0.178941 0.082421
0.095915 0.181788 0.097531
0.103791 0.186079 0.105671
0.113976 0.190679 0.116385
0.132110 0.193949 0.135091
0.154910 0.195158 0.159463
0.189017 0.189639 0.204179
0.223988 0.182434 0.230440
0.246846 0.178715 0.252791
0.270727 0.173548 0.276083
0.295035 0.166790 0.299268
0.318909 0.159232 0.322546
0.342404 0.151017 0.345642
0.366147 0.142035 0.368940
0.389503 0.130618 0.391826
0.415775 0.114706 0.417008
0.442148 0.094316 0.442367
0.468064 0.067375 0.467190
0.493853 0.025330 0.491957
0.514177 0.000114 0.511349
0.529489 0.000114 0.525710
0.542893 0.000115 0.538873
0.555889 0.000115 0.551696
0.569347 0.000114 0.564942
0.583280 0.000114 0.578570
0.597325 0.000112 0.592331
0.611978 0.000110 0.606675
0.626788 0.000107 0.621045
0.641831 0.000104 0.635680
0.654986 0.000101 0.648947
0.667762 0.000097 0.661874
0.680896 0.000093 0.675155
0.694186 0.000087 0.688587
0.707616 0.000081 0.702199
0.721053 0.000075 0.715768
0.734734 0.000067 0.729578
0.748562 0.000059 0.743492
0.762486 0.000051 0.757497
0.776571 0.000041 0.771700
0.790657 0.000030 0.785863
0.804707 0.000018 0.800022
0.818930 0.000006 0.814282
0.833210 0.000000 0.828634
0.847775 0.000000 0.843234
0.862213 0.000000 0.857772
0.876943 0.000000 0.872538
0.891541 0.000000 0.887199
0.906195 0.000000 0.901884
0.921050 0.000000 0.916801
0.935796 0.000000 0.931578
0.950671 0.000000 0.946483
0.965636 0.000000 0.961476
0.980462 0.000000 0.976331
0.995507 0.000000 0.991405
0.999727 0.098465 0.995730
0.998202 0.162897 0.999697
0.007907 0.173799 0.000033
0.001606 0.176290 0.000030
0.000819 0.179185 0.000031
0.000821 0.182031 0.000032
0.000822 0.185257 0.000033
0.003977 0.189048 0.003975
0.025262 0.190699 0.026046
0.051705 0.192540 0.052362
0.074679 0.195170 0.076176
0.093857 0.197565 0.095503
0.107901 0.200517 0.110075
0.115708 0.204955 0.117746
0.125610 0.209475 0.128118
0.143135 0.213160 0.146708
0.165349 0.214975 0.170077
0.192116 0.213522 0.202641
0.234914 0.203418 0.243093
0.260197 0.199140 0.267074
0.282788 0.195363 0.289430
0.307902 0.189024 0.313336
0.332325 0.182012 0.336863
0.356573 0.174015 0.360349
0.387146 0.162212 0.389216
0.411753 0.150233 0.413085
0.437096 0.135131 0.437553
0.464154 0.116090 0.463489
0.490522 0.091805 0.488747
0.517125 0.057518 0.514254
0.543306 0.003268 0.539350
0.558705 0.000115 0.553786
0.574187 0.000115 0.568373
0.588564 0.000113 0.582171
0.601514 0.000112 0.594928
0.615028 0.000110 0.608269
0.628811 0.000108 0.621794
0.642933 0.000105 0.635582
0.656339 0.000101 0.648900
0.668537 0.000098 0.661366
0.680984 0.000093 0.674031
0.693621 0.000088 0.686921
0.706432 0.000083 0.699933
0.719319 0.000077 0.712972
0.732478 0.000069 0.726320
0.745808 0.000062 0.739835
0.759258 0.000053 0.753424
0.772817 0.000044 0.767118
0.786403 0.000034 0.780796
0.800227 0.000023 0.794711
0.813990 0.000012 0.808562
0.827936 0.000000 0.822592
0.841982 0.000000 0.836756
0.856285 0.000000 0.851142
0.870505 0.000000 0.865440
0.884864 0.000000 0.879878
0.899262 0.000000 0.894349
0.913783 0.000000 0.908943
0.928358 0.000000 0.923559
0.943012 0.000000 0.938283
0.957597 0.000000 0.952906
0.972364 0.000000 0.967740
0.987164 0.000000 0.982552
0.999741 0.024988 0.995206
0.999724 0.129707 0.995432
0.998203 0.178444 0.999697
0.008699 0.189880 0.000039
0.003186 0.191943 0.000036
0.000824 0.194387 0.000036
0.000825 0.197195 0.000036
0.000827 0.200352 0.000038
0.000041 0.203648 0.000038
0.013442 0.207258 0.013439
0.039456 0.208562 0.040240
0.065666 0.210971 0.066770
0.087866 0.213717 0.090041
0.106427 0.215885 0.108628
0.120097 0.218920 0.122389
0.127189 0.223647 0.129975
0.136864 0.228264 0.140028
0.154140 0.231782 0.157709
0.175590 0.234422 0.180689
0.201293 0.234585 0.209836
0.243256 0.225020 0.254885
0.272248 0.219798 0.280388
0.295908 0.216060 0.303430
0.322998 0.210406 0.329020
0.354355 0.201884 0.357760
0.385686 0.191309 0.387130
0.416917 0.178514 0.416492
0.448304 0.162953 0.446091
0.471387 0.148100 0.468807
0.493670 0.131544 0.490762
0.516342 0.111558 0.512955
0.540222 0.084327 0.536239
0.567250 0.036367 0.562029
0.588456 0.000114 0.582225
0.603490 0.000113 0.596353
0.618812 0.000110 0.610780
0.634052 0.000107 0.625227
0.647363 0.000104 0.638292
0.660607 0.000101 0.651398
0.671891 0.000097 0.663069
0.683510 0.000093 0.675018
0.695224 0.000088 0.687051
0.707363 0.000083 0.699504
0.719691 0.000077 0.712092
0.732276 0.000070 0.724889
0.744979 0.000063 0.737839
0.757831 0.000056 0.750888
0.770818 0.000047 0.764069
0.783969 0.000037 0.777368
0.797198 0.000027 0.790742
0.810534 0.000016 0.804218
0.824106 0.000003 0.817927
0.837763 0.000000 0.831683
0.851597 0.000000 0.845647
0.865496 0.000000 0.859641
0.879456 0.000000 0.873724
0.893689 0.000000 0.888046
0.907840 0.000000 0.902284
0.922152 0.000000 0.916681
0.936497 0.000000 0.931108
0.950842 0.000000 0.945532
0.965298 0.000000 0.960065
0.979911 0.000000 0.974727
0.994481 0.000000 0.989372
0.999727 0.089339 0.994762
0.999724 0.150467 0.995432
0.998205 0.193882 0.999699
0.010279 0.205559 0.000046
0.004766 0.207451 0.000043
0.000829 0.209883 0.000041
0.000831 0.212468 0.000042
0.000832 0.215379 0.000043
0.000046 0.218602 0.000044
0.001624 0.222470 0.001621
0.025272 0.225055 0.026056
0.054323 0.226414 0.055590
0.079123 0.229288 0.081495
0.101106 0.232124 0.103412
0.118766 0.234758 0.121411
0.132116 0.237846 0.135096
0.139180 0.242474 0.142292
0.148342 0.247158 0.152051
0.164872 0.250680 0.169143
0.185868 0.253397 0.191289
0.210588 0.254593 0.218552
0.245137 0.248537 0.264942
0.292755 0.239447 0.299136
0.325580 0.234260 0.329348
0.355661 0.228265 0.357755
0.383304 0.219278 0.384028
0.415169 0.208553 0.413823
0.446629 0.195180 0.443410
0.479042 0.178741 0.473982
0.510715 0.157747 0.503963
0.533753 0.138638 0.526756
0.557152 0.115063 0.549710
0.580676 0.084327 0.572677
0.605075 0.033999 0.596385
0.623912 0.000110 0.614596
0.637498 0.000107 0.627651
0.651895 0.000104 0.641373
0.666624 0.000100 0.655379
0.677733 0.000096 0.666778
0.688349 0.000092 0.677930
0.699358 0.000087 0.689329
0.710649 0.000082 0.701088
0.722206 0.000077 0.713013
0.734010 0.000070 0.725135
0.745887 0.000064 0.737318
0.758139 0.000056 0.749831
0.770554 0.000048 0.762500
0.783155 0.000039 0.775348
0.795860 0.000029 0.788289
0.808728 0.000018 0.801352
0.821749 0.000007 0.814529
0.834980 0.000000 0.827946
0.848341 0.000000 0.841453
0.861885 0.000000 0.855142
0.875506 0.000000 0.868902
